; G-Code generated by Simplify3D(R) Version 4.1.2
; Nov 10, 2021 at 1:55:22 PM
; Settings Summary
;   processName,Process1
;   applyToModels,3DBenchy Boat
;   profileName,ANOB 1.0.0 E1 S3D
;   profileVersion,2021-11-08 09:43:40
;   baseProfile,Default
;   printMaterial,
;   printQuality,
;   printExtruders,
;   extruderName,Extruder 1
;   extruderToolheadNumber,0
;   extruderDiameter,0.4
;   extruderAutoWidth,0
;   extruderWidth,0.4
;   extrusionMultiplier,0.99
;   extruderUseRetract,1
;   extruderRetractionDistance,0.6
;   extruderExtraRestartDistance,0.03
;   extruderRetractionZLift,0.2
;   extruderRetractionSpeed,1500
;   extruderUseCoasting,0
;   extruderCoastingDistance,0.5
;   extruderUseWipe,1
;   extruderWipeDistance,0.5
;   primaryExtruder,0
;   layerHeight,0.2
;   topSolidLayers,3
;   bottomSolidLayers,3
;   perimeterOutlines,3
;   printPerimetersInsideOut,1
;   startPointOption,3
;   startPointOriginX,100
;   startPointOriginY,0
;   sequentialIslands,1
;   spiralVaseMode,0
;   firstLayerHeightPercentage,200
;   firstLayerWidthPercentage,150
;   firstLayerUnderspeed,0.3
;   useRaft,0
;   raftExtruder,0
;   raftTopLayers,2
;   raftBaseLayers,1
;   raftOffset,4
;   raftSeparationDistance,0.15
;   raftTopInfill,100
;   aboveRaftSpeedMultiplier,0.3
;   useSkirt,1
;   skirtExtruder,0
;   skirtLayers,1
;   skirtOutlines,1
;   skirtOffset,1
;   usePrimePillar,0
;   primePillarExtruder,999
;   primePillarWidth,12
;   primePillarLocation,7
;   primePillarSpeedMultiplier,1
;   useOozeShield,0
;   oozeShieldExtruder,999
;   oozeShieldOffset,2
;   oozeShieldOutlines,1
;   oozeShieldSidewallShape,1
;   oozeShieldSidewallAngle,30
;   oozeShieldSpeedMultiplier,1
;   infillExtruder,0
;   internalInfillPattern,Rectilinear
;   externalInfillPattern,Rectilinear
;   infillPercentage,35
;   outlineOverlapPercentage,20
;   infillExtrusionWidthPercentage,100
;   minInfillLength,2
;   infillLayerInterval,1
;   internalInfillAngles,45,-45
;   overlapInternalInfillAngles,0
;   externalInfillAngles,45,-45
;   generateSupport,0
;   supportExtruder,0
;   supportInfillPercentage,35
;   supportExtraInflation,0.4
;   supportBaseLayers,1
;   denseSupportExtruder,0
;   denseSupportLayers,2
;   denseSupportInfillPercentage,70
;   supportLayerInterval,1
;   supportHorizontalPartOffset,0.7
;   supportUpperSeparationLayers,2
;   supportLowerSeparationLayers,1
;   supportType,0
;   supportGridSpacing,2
;   maxOverhangAngle,55
;   supportAngles,45,-45
;   temperatureName,Extruder 1
;   temperatureNumber,0
;   temperatureSetpointCount,2
;   temperatureSetpointLayers,1,3
;   temperatureSetpointTemperatures,190,195
;   temperatureStabilizeAtStartup,1
;   temperatureHeatedBed,0
;   fanLayers,1
;   fanSpeeds,40
;   blipFanToFullPower,0
;   adjustSpeedForCooling,1
;   minSpeedLayerTime,15
;   minCoolingSpeedSlowdown,30
;   increaseFanForCooling,0
;   minFanLayerTime,5
;   maxCoolingFanSpeed,100
;   increaseFanForBridging,1
;   bridgingFanSpeed,50
;   use5D,1
;   relativeEdistances,1
;   allowEaxisZeroing,1
;   independentExtruderAxes,0
;   includeM10123,0
;   stickySupport,1
;   applyToolheadOffsets,0
;   gcodeXoffset,0
;   gcodeYoffset,0
;   gcodeZoffset,0
;   overrideMachineDefinition,1
;   machineTypeOverride,0
;   strokeXoverride,255
;   strokeYoverride,155
;   strokeZoverride,200
;   originOffsetXoverride,0
;   originOffsetYoverride,0
;   originOffsetZoverride,0
;   homeXdirOverride,-1
;   homeYdirOverride,-1
;   homeZdirOverride,1
;   flipXoverride,1
;   flipYoverride,-1
;   flipZoverride,1
;   toolheadOffsets,0,0|0,0|0,0|0,0|0,0|0,0
;   overrideFirmwareConfiguration,0
;   firmwareTypeOverride,RepRap (Marlin/Repetier/Sprinter)
;   GPXconfigOverride,r2
;   baudRateOverride,250000
;   overridePrinterModels,0
;   printerModelsOverride
;   startingGcode,M83 ; relative extrusion mode,,;Pressure advances,M572 D0 S0.04                      ;Pressure advance enabled 0.04,M400 ; Finish all current moves and for pressure advances.,,,;Wipe nozzle before printing,G1 Z10 F1200			; Go to wipe position,G1 X20 Y165 F6000 		; Go to wipe position,G1 Z0.2 F1200			; Go to wipe height,G91			         ; relative movement for wipe extrusion,G1 E10.0 F300		         ; Extrude 10mm for wipe,M400			         ; wait for moves to finishng,G90			         ; world coordinate position,G92 E0			         ; zero extruder,G4 S1			         ; wait for wipe to drop,G1 Y140.0 E1 F900	         ; Move on bed wipe the nozzle,		                 ;MHI3D CODE END
;   layerChangeGcode,
;   retractionGcode,
;   toolChangeGcode,
;   endingGcode,G28 Z0	;Home Z,G91	;Relative movement for wipe extrusion,G1 E-2.0 F120	;Extrude 10mm for wipe,M400	; wait for moves to finishng,G90	; world coordinate position,G92 E0	; zero extruder,,G28	;Home,M104 S0	;Set Extruder Temperature,M140 S0	;Set Bed Temperature (Fast) or Configure Bed Heater,G90	;Set to Absolute Positioning,M18 X Z E0	;Disable XZE stepper motors,G1 Y145 F3000	;Move,G92 E0	;Set position,M107	;Fan off,M18 Y	;Disable Y stepper motor
;   exportFileFormat,gcode
;   celebration,0
;   celebrationSong,Random Song
;   postProcessing,
;   defaultSpeed,2100
;   outlineUnderspeed,0.5
;   solidInfillUnderspeed,1
;   supportUnderspeed,1
;   rapidXYspeed,3000
;   rapidZspeed,900
;   minBridgingArea,50
;   bridgingExtraInflation,1
;   bridgingExtrusionMultiplier,1
;   bridgingSpeedMultiplier,1
;   useFixedBridgingAngle,0
;   fixedBridgingAngle,0
;   applyBridgingToPerimeters,1
;   filamentDiameters,1.75|1.75|1.75|1.75|1.75|1.75
;   filamentPricesPerKg,186|46|46|46|46|46
;   filamentDensities,0.9|1.25|1.25|1.25|1.25|1.25
;   useMinPrintHeight,0
;   minPrintHeight,0
;   useMaxPrintHeight,0
;   maxPrintHeight,15
;   useDiaphragm,0
;   diaphragmLayerInterval,20
;   robustSlicing,1
;   mergeAllIntoSolid,0
;   onlyRetractWhenCrossingOutline,1
;   retractBetweenLayers,0
;   useRetractionMinTravel,1
;   retractionMinTravel,3
;   retractWhileWiping,1
;   onlyWipeOutlines,1
;   avoidCrossingOutline,1
;   maxMovementDetourFactor,4
;   toolChangeRetractionDistance,20
;   toolChangeExtraRestartDistance,0
;   toolChangeRetractionSpeed,600
;   externalThinWallType,0
;   internalThinWallType,2
;   thinWallAllowedOverlapPercentage,15
;   singleExtrusionMinLength,1
;   singleExtrusionMinPrintingWidthPercentage,50
;   singleExtrusionMaxPrintingWidthPercentage,200
;   singleExtrusionEndpointExtension,0.1
;   horizontalSizeCompensation,0
G90
M83
M106 S102
M104 S190 T0
M109 S190 T0
M83 ; relative extrusion mode
;Pressure advances
M572 D0 S0.04                      ;Pressure advance enabled 0.04
M400 ; Finish all current moves and for pressure advances.
;Wipe nozzle before printing
G1 Z10 F1200			; Go to wipe position
G1 X20 Y165 F6000 		; Go to wipe position
G1 Z0.2 F1200			; Go to wipe height
G91			         ; relative movement for wipe extrusion
G1 E10.0 F300		         ; Extrude 10mm for wipe
M400			         ; wait for moves to finishng
G90			         ; world coordinate position
G92 E0			         ; zero extruder
G4 S1			         ; wait for wipe to drop
G1 Y140.0 E1 F900	         ; Move on bed wipe the nozzle
		                 ;MHI3D CODE END
; process Process1
; layer 1, Z = 0.400
T0
G1 E-0.6000 F1500
; feature skirt
; tool H0.400 W0.600
G1 Z0.400 F900
G1 X102.717 Y53.844 F3000
G1 E0.6300 F1500
G1 X102.870 Y53.848 E0.0151 F630
G1 X103.307 Y53.912 E0.0437
G1 X103.444 Y53.948 E0.0140
G1 X103.841 Y54.099 E0.0419
G1 X103.946 Y54.150 E0.0115
G1 X104.681 Y54.594 E0.0849
G1 X104.712 Y54.614 E0.0036
G1 X105.453 Y55.120 E0.0886
G1 X105.493 Y55.150 E0.0050
G1 X106.675 Y56.101 E0.1498
G1 X106.712 Y56.133 E0.0048
G1 X107.328 Y56.710 E0.0834
G1 X107.352 Y56.734 E0.0033
G1 X107.900 Y57.303 E0.0780
G1 X107.932 Y57.338 E0.0047
G1 X108.891 Y58.494 E0.1484
G1 X108.919 Y58.531 E0.0046
G1 X109.336 Y59.112 E0.0707
G1 X109.359 Y59.147 E0.0042
G1 X110.054 Y60.263 E0.1298
G1 X110.082 Y60.313 E0.0056
G1 X110.741 Y61.612 E0.1439
G1 X110.765 Y61.666 E0.0059
G1 X111.274 Y62.946 E0.1361
G1 X111.290 Y62.990 E0.0046
G1 X111.551 Y63.816 E0.0856
G1 X111.561 Y63.850 E0.0036
G1 X111.777 Y64.690 E0.0856
G1 X111.785 Y64.724 E0.0035
G1 X111.957 Y65.590 E0.0872
G1 X111.963 Y65.625 E0.0035
G1 X112.079 Y66.442 E0.0815
G1 X112.083 Y66.477 E0.0035
G1 X112.160 Y67.348 E0.0864
G1 X112.162 Y67.383 E0.0035
G1 X112.190 Y68.223 E0.0830
G1 X112.190 Y68.260 E0.0036
G1 X112.170 Y69.145 E0.0875
G1 X112.169 Y69.170 E0.0025
G1 X110.704 Y92.930 E2.3516
G1 X110.684 Y93.057 E0.0127
G1 X110.518 Y93.684 E0.0640
G1 X110.447 Y93.852 E0.0180
G1 X110.105 Y94.424 E0.0659
G1 X109.985 Y94.571 E0.0187
G1 X109.505 Y95.009 E0.0642
G1 X109.371 Y95.104 E0.0162
G1 X108.916 Y95.346 E0.0509
G1 X108.792 Y95.396 E0.0132
G1 X108.309 Y95.537 E0.0497
G1 X108.186 Y95.560 E0.0123
G1 X107.709 Y95.604 E0.0474
G1 X107.649 Y95.607 E0.0059
G1 X97.647 Y95.603 E0.9880
G1 X97.567 Y95.598 E0.0079
G1 X97.231 Y95.556 E0.0334
G1 X97.150 Y95.541 E0.0082
G1 X96.802 Y95.452 E0.0354
G1 X96.679 Y95.407 E0.0130
G1 X96.099 Y95.125 E0.0637
G1 X95.945 Y95.020 E0.0184
G1 X95.453 Y94.572 E0.0657
G1 X95.333 Y94.424 E0.0188
G1 X94.997 Y93.863 E0.0646
G1 X94.933 Y93.718 E0.0157
G1 X94.786 Y93.236 E0.0498
G1 X94.763 Y93.127 E0.0110
G1 X94.723 Y92.800 E0.0325
G1 X94.719 Y92.760 E0.0040
G1 X93.276 Y69.294 E2.3224
G1 X93.275 Y69.262 E0.0031
G1 X93.256 Y67.803 E0.1442
G1 X93.258 Y67.742 E0.0060
G1 X93.375 Y66.300 E0.1428
G1 X93.381 Y66.252 E0.0048
G1 X93.519 Y65.370 E0.0882
G1 X93.526 Y65.333 E0.0038
G1 X93.729 Y64.401 E0.0942
G1 X93.742 Y64.353 E0.0049
G1 X94.153 Y62.976 E0.1421
G1 X94.169 Y62.930 E0.0048
G1 X94.482 Y62.108 E0.0869
G1 X94.494 Y62.080 E0.0030
G1 X94.746 Y61.502 E0.0623
G1 X94.765 Y61.462 E0.0044
G1 X95.446 Y60.153 E0.1457
G1 X95.470 Y60.111 E0.0049
G1 X95.954 Y59.333 E0.0904
G1 X95.973 Y59.303 E0.0035
G1 X96.415 Y58.671 E0.0762
G1 X96.433 Y58.646 E0.0030
G1 X96.873 Y58.074 E0.0714
G1 X96.900 Y58.042 E0.0041
G1 X97.710 Y57.119 E0.1213
G1 X97.740 Y57.087 E0.0043
G1 X98.360 Y56.469 E0.0865
G1 X98.395 Y56.436 E0.0047
G1 X99.489 Y55.495 E0.1426
G1 X99.528 Y55.464 E0.0049
G1 X100.277 Y54.913 E0.0918
G1 X100.317 Y54.886 E0.0049
G1 X101.509 Y54.142 E0.1387
G1 X101.643 Y54.078 E0.0147
G1 X102.115 Y53.916 E0.0493
G1 X102.269 Y53.883 E0.0156
G1 X102.717 Y53.844 E0.0445
G1 E-0.6000 F1500
; feature inner perimeter
G1 Z0.600 F900
G1 X102.747 Y55.447 F3000
G1 X102.515 Y55.468
G1 X102.391 Y55.502
G1 X102.269 Y55.552
G1 X101.734 Y55.868
G1 X101.432 Y56.068
G1 X99.700 Y59.065
G1 Z0.400 F900
G1 E0.6300 F1500
G1 X99.700 Y60.526 E0.1443 F473
G1 X99.725 Y60.885 E0.0356
G1 X99.819 Y61.319 E0.0439
G1 X99.945 Y61.610 E0.0313
G1 X99.801 Y61.814 E0.0247
G1 X99.665 Y62.665 E0.0852
G1 X99.901 Y63.373 E0.0737
G1 X100.255 Y63.823 E0.0566
G1 X99.984 Y64.193 E0.0453
G1 X99.798 Y64.623 E0.0464
G1 X99.714 Y65.011 E0.0392
G1 X99.695 Y65.437 E0.0421
G1 X99.815 Y66.026 E0.0594
G1 X99.935 Y66.218 E0.0223
G1 X99.671 Y66.960 E0.0778
G1 X99.754 Y67.681 E0.0717
G1 X100.012 Y68.212 E0.0583
G1 X99.819 Y68.555 E0.0389
G1 X99.704 Y69.009 E0.0462
G1 X99.699 Y69.437 E0.0423
G1 X99.782 Y69.850 E0.0416
G1 X99.940 Y70.218 E0.0396
G1 X100.168 Y70.561 E0.0407
G1 X100.521 Y70.893 E0.0478
G1 X101.444 Y71.354 E0.1019
G1 X100.752 Y71.578 E0.0718
G1 X100.409 Y71.721 E0.0367
G1 X100.077 Y71.897 E0.0371
G1 X99.703 Y72.145 E0.0444
G1 X99.201 Y72.602 E0.0671
G1 X98.952 Y72.915 E0.0396
G1 X98.764 Y73.213 E0.0348
G1 X98.611 Y73.525 E0.0343
G1 X98.483 Y73.877 E0.0370
G1 X98.336 Y74.548 E0.0678
G1 X98.269 Y75.357 E0.0802
G1 X98.255 Y76.829 E0.1454
G1 X98.310 Y77.228 E0.0398
G1 X98.415 Y77.576 E0.0359
G1 X98.602 Y77.957 E0.0419
G1 X98.885 Y78.283 E0.0427
G1 X98.625 Y78.600 E0.0405
G1 X98.376 Y79.062 E0.0518
G1 X98.236 Y79.455 E0.0413
G1 X98.109 Y80.122 E0.0670
G1 X98.092 Y80.869 E0.0738
G1 X98.143 Y81.336 E0.0464
G1 X98.255 Y81.833 E0.0503
G1 X98.446 Y82.320 E0.0517
G1 X98.572 Y82.534 E0.0245
G1 X98.334 Y83.066 E0.0576
G1 X98.263 Y83.489 E0.0424
G1 X98.275 Y86.862 E0.3332
G1 X98.226 Y87.592 E0.0723
G1 X98.284 Y88.020 E0.0427
G1 X98.479 Y88.526 E0.0536
G1 X98.660 Y88.743 E0.0279
G1 X98.461 Y89.069 E0.0378
G1 X98.263 Y89.555 E0.0518
G1 X98.140 Y90.086 E0.0538
G1 X98.099 Y90.487 E0.0398
G1 X98.093 Y90.962 E0.0470
G1 X98.124 Y91.353 E0.0388
G1 X98.222 Y91.873 E0.0523
G1 X98.395 Y92.379 E0.0527
G1 X98.600 Y92.803 E0.0466
G1 X97.780 Y92.803 E0.0810
G1 X97.541 Y92.773 E0.0238
G1 X97.509 Y92.521 E0.0251
G1 X96.073 Y69.155 E2.3125
G1 X96.050 Y68.583 E0.0566
G1 X96.056 Y67.867 E0.0707
G1 X96.094 Y67.219 E0.0641
G1 X96.156 Y66.625 E0.0590
G1 X96.276 Y65.867 E0.0758
G1 X96.451 Y65.060 E0.0816
G1 X96.613 Y64.470 E0.0605
G1 X96.807 Y63.868 E0.0624
G1 X97.080 Y63.153 E0.0756
G1 X97.288 Y62.676 E0.0514
G1 X97.628 Y61.992 E0.0754
G1 X97.881 Y61.536 E0.0516
G1 X98.301 Y60.859 E0.0786
G1 X98.681 Y60.315 E0.0656
G1 X99.059 Y59.825 E0.0611
G1 X99.700 Y59.065 E0.0982
G1 X100.900 Y59.610 F3000
G1 X100.900 Y60.484
G1 X100.916 Y60.716
G1 X100.967 Y60.951
G1 X101.034 Y61.105
G1 X101.171 Y61.274
G1 X101.316 Y61.368
G1 X101.478 Y61.426
G1 X101.649 Y61.451
G1 X101.820 Y61.444
G1 X101.985 Y61.405
G1 X102.170 Y61.309
G1 X102.288 Y61.193
G1 X102.376 Y61.051
G1 X102.463 Y60.748
G1 X102.495 Y60.334
G1 X104.559 Y61.271
G1 X104.678 Y61.343
G1 X104.908 Y61.429
G1 X106.637 Y62.214
G1 X106.953 Y61.897 E0.0442 F473
G1 X107.340 Y61.176 E0.0808
G1 X107.630 Y61.666 E0.0562
G1 X107.903 Y62.172 E0.0568
G1 X108.223 Y62.837 E0.0729
G1 X106.637 Y62.214 E0.1684
G1 X106.806 Y63.570 F3000
G1 X107.244 Y63.742
G1 X107.761 Y63.994
G1 X107.950 Y64.119
G1 X108.165 Y64.310
G1 X108.341 Y64.543
G1 X108.480 Y64.825
G1 X108.589 Y65.161
G1 X108.638 Y65.452
G1 X108.632 Y65.698
G1 X108.589 Y65.864
G1 X108.507 Y66.028
G1 X108.290 Y66.238
G1 X108.054 Y66.351
G1 X107.878 Y66.393
G1 X107.718 Y66.403
G1 X107.559 Y66.380
G1 X107.416 Y66.321
G1 X107.288 Y66.218
G1 X107.170 Y66.035
G1 X107.073 Y65.698
G1 X107.305 Y67.556
G1 X107.669 Y67.607 E0.0363 F473
G1 X108.057 Y67.585 E0.0384
G1 X108.458 Y67.487 E0.0408
G1 X109.325 Y67.075 E0.0949
G1 X109.366 Y67.534 E0.0456
G1 X109.389 Y68.255 E0.0712
G1 X109.371 Y69.039 E0.0775
G1 X107.908 Y92.774 E2.3490
G1 X107.551 Y92.807 E0.0355
G1 X106.776 Y92.806 E0.0765
G1 X107.012 Y92.279 E0.0571
G1 X107.177 Y91.737 E0.0560
G1 X107.245 Y91.335 E0.0403
G1 X107.275 Y90.917 E0.0413
G1 X107.244 Y90.196 E0.0713
G1 X107.101 Y89.548 E0.0656
G1 X106.959 Y89.179 E0.0390
G1 X106.796 Y88.868 E0.0348
G1 X106.602 Y88.579 E0.0344
G1 X106.369 Y88.310 E0.0351
G1 X106.104 Y88.069 E0.0354
G1 X105.501 Y87.646 E0.0727
G1 X106.183 Y87.407 E0.0714
G1 X106.599 Y87.072 E0.0529
G1 X106.884 Y86.683 E0.0476
G1 X107.077 Y86.175 E0.0537
G1 X107.133 Y85.749 E0.0424
G1 X107.115 Y85.326 E0.0419
G1 X106.957 Y84.773 E0.0568
G1 X106.604 Y84.270 E0.0607
G1 X106.170 Y83.927 E0.0546
G1 X105.547 Y83.689 E0.0659
G1 X106.261 Y83.208 E0.0851
G1 X106.557 Y82.930 E0.0401
G1 X106.837 Y82.534 E0.0479
G1 X107.000 Y82.202 E0.0365
G1 X107.126 Y81.839 E0.0379
G1 X107.252 Y81.215 E0.0629
G1 X107.276 Y80.505 E0.0701
G1 X107.246 Y80.113 E0.0389
G1 X107.187 Y79.767 E0.0347
G1 X107.096 Y79.433 E0.0342
G1 X106.965 Y79.099 E0.0354
G1 X106.794 Y78.775 E0.0362
G1 X106.463 Y78.292 E0.0579
G1 X106.818 Y77.953 E0.0485
G1 X107.080 Y77.377 E0.0625
G1 X107.143 Y76.907 E0.0469
G1 X107.092 Y76.207 E0.0693
G1 X107.098 Y75.303 E0.0893
G1 X107.051 Y74.702 E0.0596
G1 X106.958 Y74.189 E0.0515
G1 X106.859 Y73.841 E0.0357
G1 X106.727 Y73.508 E0.0353
G1 X107.021 Y73.207 E0.0416
G1 X107.272 Y72.841 E0.0439
G1 X107.467 Y72.402 E0.0474
G1 X107.584 Y71.818 E0.0589
G1 X107.573 Y71.341 E0.0471
G1 X107.481 Y70.883 E0.0462
G1 X107.257 Y70.369 E0.0554
G1 X107.151 Y70.222 E0.0179
G1 X107.338 Y69.306 E0.0923
G1 X107.165 Y68.588 E0.0730
G1 X106.961 Y68.291 E0.0355
G1 X107.116 Y68.061 E0.0274
G1 X107.305 Y67.556 E0.0533
G1 E-0.6000 F1500
G1 Z0.600 F900
G1 X106.319 Y71.221 F3000
G1 X106.330 Y71.245
G1 X106.376 Y71.475
G1 X106.381 Y71.712
G1 X106.316 Y72.036
G1 X106.220 Y72.253
G1 X106.090 Y72.443
G1 X105.952 Y72.584
G1 X105.590 Y73.930
G1 X105.634 Y74.008
G1 X105.721 Y74.227
G1 X105.787 Y74.460
G1 X105.860 Y74.857
G1 X105.898 Y75.346
