; G-Code generated by Simplify3D(R) Version 4.1.2
; Jul 28, 2021 at 5:07:53 PM
; Settings Summary
;   processName,Process1
;   applyToModels,flashlight-conductive(2)
;   profileName,B01_Koltron G1_MANU_S3D Normal Quality (modified)
;   profileVersion,2021-07-27 14:55:02
;   baseProfile,Default
;   printMaterial,
;   printQuality,
;   printExtruders,
;   extruderName,Extruder 1
;   extruderToolheadNumber,0
;   extruderDiameter,0.4
;   extruderAutoWidth,0
;   extruderWidth,0.4
;   extrusionMultiplier,0.95
;   extruderUseRetract,1
;   extruderRetractionDistance,0.6
;   extruderExtraRestartDistance,0
;   extruderRetractionZLift,0.1
;   extruderRetractionSpeed,1800
;   extruderUseCoasting,0
;   extruderCoastingDistance,0.5
;   extruderUseWipe,0
;   extruderWipeDistance,0.5
;   primaryExtruder,0
;   layerHeight,0.2
;   topSolidLayers,4
;   bottomSolidLayers,4
;   perimeterOutlines,3
;   printPerimetersInsideOut,1
;   startPointOption,3
;   startPointOriginX,100
;   startPointOriginY,0
;   sequentialIslands,1
;   spiralVaseMode,0
;   firstLayerHeightPercentage,100
;   firstLayerWidthPercentage,100
;   firstLayerUnderspeed,0.3
;   useRaft,0
;   raftExtruder,0
;   raftTopLayers,2
;   raftBaseLayers,1
;   raftOffset,4
;   raftSeparationDistance,0.08
;   raftTopInfill,100
;   aboveRaftSpeedMultiplier,0.3
;   useSkirt,1
;   skirtExtruder,0
;   skirtLayers,1
;   skirtOutlines,1
;   skirtOffset,1
;   usePrimePillar,0
;   primePillarExtruder,999
;   primePillarWidth,12
;   primePillarLocation,7
;   primePillarSpeedMultiplier,1
;   useOozeShield,0
;   oozeShieldExtruder,999
;   oozeShieldOffset,2
;   oozeShieldOutlines,1
;   oozeShieldSidewallShape,1
;   oozeShieldSidewallAngle,30
;   oozeShieldSpeedMultiplier,1
;   infillExtruder,0
;   internalInfillPattern,Rectilinear
;   externalInfillPattern,Rectilinear
;   infillPercentage,100
;   outlineOverlapPercentage,20
;   infillExtrusionWidthPercentage,100
;   minInfillLength,2
;   infillLayerInterval,1
;   internalInfillAngles,45,-45
;   overlapInternalInfillAngles,0
;   externalInfillAngles,45,-45
;   generateSupport,0
;   supportExtruder,0
;   supportInfillPercentage,35
;   supportExtraInflation,0.4
;   supportBaseLayers,1
;   denseSupportExtruder,0
;   denseSupportLayers,2
;   denseSupportInfillPercentage,70
;   supportLayerInterval,1
;   supportHorizontalPartOffset,0.6
;   supportUpperSeparationLayers,2
;   supportLowerSeparationLayers,1
;   supportType,0
;   supportGridSpacing,2
;   maxOverhangAngle,55
;   supportAngles,45,-45
;   temperatureName,Extruder 1
;   temperatureNumber,0
;   temperatureSetpointCount,4
;   temperatureSetpointLayers,1,2,3,4
;   temperatureSetpointTemperatures,268,280,290,295
;   temperatureStabilizeAtStartup,1
;   temperatureHeatedBed,0
;   fanLayers,1
;   fanSpeeds,0
;   blipFanToFullPower,0
;   adjustSpeedForCooling,1
;   minSpeedLayerTime,20
;   minCoolingSpeedSlowdown,40
;   increaseFanForCooling,0
;   minFanLayerTime,5
;   maxCoolingFanSpeed,100
;   increaseFanForBridging,1
;   bridgingFanSpeed,100
;   use5D,1
;   relativeEdistances,1
;   allowEaxisZeroing,1
;   independentExtruderAxes,0
;   includeM10123,0
;   stickySupport,1
;   applyToolheadOffsets,0
;   gcodeXoffset,0
;   gcodeYoffset,0
;   gcodeZoffset,0
;   overrideMachineDefinition,1
;   machineTypeOverride,0
;   strokeXoverride,255
;   strokeYoverride,155
;   strokeZoverride,200
;   originOffsetXoverride,0
;   originOffsetYoverride,0
;   originOffsetZoverride,0
;   homeXdirOverride,-1
;   homeYdirOverride,-1
;   homeZdirOverride,1
;   flipXoverride,1
;   flipYoverride,-1
;   flipZoverride,1
;   toolheadOffsets,0,0|0,0|0,0|0,0|0,0|0,0
;   overrideFirmwareConfiguration,0
;   firmwareTypeOverride,RepRap (Marlin/Repetier/Sprinter)
;   GPXconfigOverride,r2
;   baudRateOverride,250000
;   overridePrinterModels,0
;   printerModelsOverride
;   startingGcode,M83 ; relative extrusion mode,,;Pressure advances,M572 D0 S0.05                      ;Pressure advance enabled 0.04,M400 ; Finish all current moves and for pressure advances.,,,;Wipe nozzle before printing,G1 Z10 F1200			; Go to wipe position,G1 X20 Y165 F6000 		; Go to wipe position,G1 Z0.2 F1200			; Go to wipe height,G91			         ; relative movement for wipe extrusion,G1 E10.0 F300		         ; Extrude 10mm for wipe,M400			         ; wait for moves to finishng,G90			         ; world coordinate position,G92 E0			         ; zero extruder,G4 S1			         ; wait for wipe to drop,G1 Y140.0 E1 F900	         ; Move on bed wipe the nozzle,		                 ;MHI3D CODE END
;   layerChangeGcode,
;   retractionGcode,
;   toolChangeGcode,
;   endingGcode,G28 Z0	;Home Z,G91	;Relative movement for wipe extrusion,G1 E-2.0 F120	;Extrude 10mm for wipe,M400	; wait for moves to finishng,G90	; world coordinate position,G92 E0	; zero extruder,,G28	;Home,M104 S0	;Set Extruder Temperature,M140 S0	;Set Bed Temperature (Fast) or Configure Bed Heater,G90	;Set to Absolute Positioning,M18 X Z E0	;Disable XZE stepper motors,G1 Y145 F3000	;Move,G92 E0	;Set position,M107	;Fan off,M18 Y	;Disable Y stepper motor
;   exportFileFormat,gcode
;   celebration,0
;   celebrationSong,Random Song
;   postProcessing,
;   defaultSpeed,900
;   outlineUnderspeed,1
;   solidInfillUnderspeed,1
;   supportUnderspeed,1
;   rapidXYspeed,3000
;   rapidZspeed,900
;   minBridgingArea,25
;   bridgingExtraInflation,0.4
;   bridgingExtrusionMultiplier,1
;   bridgingSpeedMultiplier,1
;   useFixedBridgingAngle,0
;   fixedBridgingAngle,0
;   applyBridgingToPerimeters,1
;   filamentDiameters,1.75|1.75|1.75|1.75|1.75|1.75
;   filamentPricesPerKg,186|46|46|46|46|46
;   filamentDensities,1.25|1.25|1.25|1.25|1.25|1.25
;   useMinPrintHeight,0
;   minPrintHeight,0
;   useMaxPrintHeight,0
;   maxPrintHeight,10
;   useDiaphragm,0
;   diaphragmLayerInterval,20
;   robustSlicing,1
;   mergeAllIntoSolid,0
;   onlyRetractWhenCrossingOutline,1
;   retractBetweenLayers,1
;   useRetractionMinTravel,1
;   retractionMinTravel,3
;   retractWhileWiping,1
;   onlyWipeOutlines,1
;   avoidCrossingOutline,1
;   maxMovementDetourFactor,3
;   toolChangeRetractionDistance,20
;   toolChangeExtraRestartDistance,0
;   toolChangeRetractionSpeed,600
;   externalThinWallType,0
;   internalThinWallType,1
;   thinWallAllowedOverlapPercentage,15
;   singleExtrusionMinLength,1
;   singleExtrusionMinPrintingWidthPercentage,50
;   singleExtrusionMaxPrintingWidthPercentage,200
;   singleExtrusionEndpointExtension,0.1
;   horizontalSizeCompensation,0
G90
M83
M106 S0
M104 S268 T0
M109 S268 T0
M83 ; relative extrusion mode
;Pressure advances
M572 D0 S0.05                      ;Pressure advance enabled 0.04
M400 ; Finish all current moves and for pressure advances.
;Wipe nozzle before printing
G1 Z10 F1200			; Go to wipe position
G1 X20 Y165 F6000 		; Go to wipe position
G1 Z0.2 F1200			; Go to wipe height
G91			         ; relative movement for wipe extrusion
G1 E10.0 F300		         ; Extrude 10mm for wipe
M400			         ; wait for moves to finishng
G90			         ; world coordinate position
G92 E0			         ; zero extruder
G4 S1			         ; wait for wipe to drop
G1 Y140.0 E1 F900	         ; Move on bed wipe the nozzle
		                 ;MHI3D CODE END
; process Process1
; layer 1, Z = 0.200
T0
G1 E-0.6000 F1800
; feature skirt
; tool H0.200 W0.400
G1 Z0.200 F900
G1 X64.680 Y82.298 F3000
G1 E0.6000 F1800
G1 X65.383 Y83.001 E0.0314 F270
G1 X65.383 Y86.663 E0.1157
G1 X65.087 Y87.202 E0.0194
G1 X45.739 Y99.536 E0.7250
G1 X45.702 Y99.558 E0.0013
G1 X45.013 Y99.931 E0.0248
G1 X44.935 Y99.966 E0.0027
G1 X44.180 Y100.246 E0.0254
G1 X44.099 Y100.270 E0.0027
G1 X43.311 Y100.440 E0.0254
G1 X43.227 Y100.452 E0.0027
G1 X42.442 Y100.508 E0.0249
G1 X42.392 Y100.509 E0.0016
G1 X41.599 Y100.500 E0.0251
G1 X41.354 Y100.445 E0.0079
G1 X40.886 Y100.232 E0.0162
G1 X40.679 Y100.077 E0.0082
G1 X40.414 Y99.769 E0.0128
G1 X40.307 Y99.593 E0.0065
G1 X40.170 Y99.238 E0.0120
G1 X40.130 Y99.036 E0.0065
G1 X40.120 Y98.656 E0.0120
G1 X40.149 Y98.452 E0.0065
G1 X40.276 Y98.066 E0.0128
G1 X40.407 Y97.843 E0.0082
G1 X40.722 Y97.502 E0.0147
G1 X40.841 Y97.403 E0.0049
G1 X52.706 Y89.839 E0.4446
G1 X52.794 Y89.759 E0.0038
G1 X52.803 Y89.743 E0.0006
G1 X52.823 Y89.623 E0.0039
G1 X52.842 Y84.465 E0.1630
G1 X52.863 Y84.311 E0.0049
G1 X52.961 Y83.947 E0.0119
G1 X53.021 Y83.801 E0.0050
G1 X53.333 Y83.260 E0.0197
G1 X53.468 Y83.100 E0.0066
G1 X53.947 Y82.698 E0.0197
G1 X54.079 Y82.614 E0.0050
G1 X54.422 Y82.453 E0.0120
G1 X54.572 Y82.406 E0.0050
G1 X55.136 Y82.307 E0.0181
G1 X55.240 Y82.298 E0.0033
G1 X64.680 Y82.298 E0.2983
; feature inner perimeter
G1 X63.983 Y83.698 F3000
G1 X63.727 Y83.698
G1 X63.183 Y84.498
G1 X63.183 Y85.807 E0.0414 F270
G1 X54.889 Y91.094 E0.3108
G1 X54.697 Y90.929 E0.0080
G1 X54.900 Y90.472 E0.0158
G1 X54.994 Y90.104 E0.0120
G1 X55.023 Y89.768 E0.0107
G1 X55.023 Y84.810 E0.1566
G1 X55.030 Y84.722 E0.0028
G1 X55.043 Y84.677 E0.0015
G1 X55.062 Y84.635 E0.0015
G1 X55.089 Y84.597 E0.0015
G1 X55.122 Y84.564 E0.0015
G1 X55.160 Y84.537 E0.0015
G1 X55.202 Y84.518 E0.0015
G1 X55.246 Y84.506 E0.0015
G1 X55.336 Y84.498 E0.0029
G1 X63.183 Y84.498 E0.2479
G1 X63.583 Y84.098 F3000
G1 X63.583 Y86.026 E0.0609 F270
G1 X44.807 Y97.995 E0.7035
G1 X44.230 Y98.308 E0.0207
G1 X43.635 Y98.529 E0.0201
G1 X43.014 Y98.663 E0.0201
G1 X42.649 Y98.689 E0.0116
G1 X42.566 Y98.437 E0.0084
G1 X53.779 Y91.289 E0.4202
G1 X54.008 Y91.115 E0.0091
G1 X54.221 Y90.887 E0.0099
G1 X54.394 Y90.626 E0.0099
G1 X54.521 Y90.340 E0.0099
G1 X54.599 Y90.038 E0.0099
G1 X54.623 Y89.751 E0.0091
G1 X54.623 Y84.793 E0.1567
G1 X54.635 Y84.652 E0.0045
G1 X54.665 Y84.539 E0.0037
G1 X54.714 Y84.434 E0.0037
G1 X54.781 Y84.338 E0.0037
G1 X54.863 Y84.256 E0.0037
G1 X54.959 Y84.189 E0.0037
G1 X55.064 Y84.140 E0.0037
G1 X55.177 Y84.110 E0.0037
G1 X55.319 Y84.098 E0.0045
G1 X63.583 Y84.098 E0.2611
; feature outer perimeter
G1 X63.983 Y83.698 F3000
G1 X63.983 Y86.245 E0.0805 F270
G1 X45.010 Y98.340 E0.7109
G1 X44.396 Y98.673 E0.0221
G1 X43.747 Y98.914 E0.0219
G1 X43.071 Y99.060 E0.0219
G1 X42.375 Y99.109 E0.0220
G1 X41.765 Y99.102 E0.0193
G1 X41.729 Y99.093 E0.0012
G1 X41.631 Y99.037 E0.0036
G1 X41.563 Y98.958 E0.0033
G1 X41.525 Y98.861 E0.0033
G1 X41.523 Y98.757 E0.0033
G1 X41.555 Y98.658 E0.0033
G1 X41.624 Y98.569 E0.0036
G1 X41.666 Y98.537 E0.0017
G1 X53.550 Y90.961 E0.4453
G1 X53.739 Y90.817 E0.0075
G1 X53.907 Y90.638 E0.0078
G1 X54.042 Y90.433 E0.0078
G1 X54.142 Y90.209 E0.0078
G1 X54.203 Y89.971 E0.0078
G1 X54.223 Y89.734 E0.0075
G1 X54.223 Y84.775 E0.1567
G1 X54.240 Y84.582 E0.0061
G1 X54.288 Y84.402 E0.0059
G1 X54.367 Y84.233 E0.0059
G1 X54.474 Y84.080 E0.0059
G1 X54.605 Y83.949 E0.0059
G1 X54.758 Y83.842 E0.0059
G1 X54.927 Y83.763 E0.0059
G1 X55.107 Y83.715 E0.0059
G1 X55.301 Y83.698 E0.0062
G1 X63.983 Y83.698 E0.2743
; feature internal single extrusion
; tool H0.200 W0.200
G1 X54.432 Y90.969 F3000
G1 X54.428 Y91.050 E0.0013 F270
; tool H0.200 W0.204
G1 X54.434 Y91.158 E0.0017
; tool H0.200 W0.353
G1 X54.440 Y91.258 E0.0028
; tool H0.200 W0.463
G1 X54.420 Y91.334 E0.0029
; tool H0.200 W0.492
G1 X54.366 Y91.378 E0.0027
; tool H0.200 W0.472
G1 X54.297 Y91.435 E0.0033
; tool H0.200 W0.457
G1 X54.217 Y91.491 E0.0035
; tool H0.200 W0.446
G1 X54.089 Y91.581 E0.0055
; tool H0.200 W0.436
G1 X54.017 Y91.631 E0.0030
; tool H0.200 W0.432
G1 X53.943 Y91.678 E0.0030
; tool H0.200 W0.432
G1 X44.612 Y97.626 E0.3776
; tool H0.200 W0.430
G1 X44.544 Y97.667 E0.0027
; tool H0.200 W0.411
G1 X44.132 Y97.910 E0.0155
; tool H0.200 W0.391
G1 X44.063 Y97.950 E0.0025
; tool H0.200 W0.379
G1 X43.992 Y97.986 E0.0024
; tool H0.200 W0.345
G1 X43.776 Y98.093 E0.0065
; tool H0.200 W0.294
G1 X43.561 Y98.199 E0.0056
; tool H0.200 W0.256
G1 X43.487 Y98.232 E0.0016
; tool H0.200 W0.215
G1 X43.338 Y98.293 E0.0027
; tool H0.200 W0.200
G1 X43.188 Y98.355 E0.0026
G1 X43.039 Y98.416 E0.0026
G1 X42.963 Y98.446 E0.0013
; feature solid layer
; tool H0.200 W0.400
G1 X55.227 Y90.486 F3000
G1 X55.235 Y90.494 E0.0003 F270
G1 X55.580 Y90.274 E0.0129
G1 X55.323 Y90.017 E0.0115
G1 X55.343 Y89.781 E0.0075
G1 X55.343 Y89.471 E0.0098
G1 X55.925 Y90.054 E0.0260
G1 X56.271 Y89.833 E0.0129
G1 X55.343 Y88.905 E0.0415
G1 X55.343 Y88.340 E0.0179
G1 X56.616 Y89.613 E0.0569
G1 X56.962 Y89.393 E0.0129
G1 X55.343 Y87.774 E0.0724
G1 X55.343 Y87.208 E0.0179
G1 X57.307 Y89.173 E0.0878
G1 X57.653 Y88.953 E0.0129
G1 X55.343 Y86.643 E0.1032
G1 X55.343 Y86.077 E0.0179
G1 X57.998 Y88.732 E0.1187
G1 X58.344 Y88.512 E0.0129
G1 X55.343 Y85.511 E0.1341
G1 X55.343 Y84.945 E0.0179
G1 X58.689 Y88.292 E0.1495
G1 X59.035 Y88.072 E0.0129
G1 X55.781 Y84.818 E0.1454
G1 X56.346 Y84.818 E0.0179
G1 X59.380 Y87.851 E0.1356
G1 X59.726 Y87.631 E0.0129
G1 X56.912 Y84.818 E0.1257
G1 X57.478 Y84.818 E0.0179
G1 X60.071 Y87.411 E0.1159
G1 X60.416 Y87.191 E0.0129
G1 X58.043 Y84.818 E0.1060
G1 X58.609 Y84.818 E0.0179
G1 X60.762 Y86.971 E0.0962
G1 X61.107 Y86.750 E0.0129
G1 X59.175 Y84.818 E0.0864
G1 X59.740 Y84.818 E0.0179
G1 X61.453 Y86.530 E0.0765
G1 X61.798 Y86.310 E0.0129
G1 X60.306 Y84.818 E0.0667
G1 X60.872 Y84.818 E0.0179
G1 X62.144 Y86.090 E0.0568
G1 X62.489 Y85.869 E0.0129
G1 X61.437 Y84.818 E0.0470
G1 X62.003 Y84.818 E0.0179
G1 X62.835 Y85.649 E0.0372
G1 X62.863 Y85.631 E0.0011
G1 X62.863 Y85.112 E0.0164
G1 X62.569 Y84.818 E0.0131
G1 E-0.6000 F1800
; layer 2, Z = 0.400
M104 S280 T0
; feature inner perimeter
G1 Z0.400 F900
G1 X63.183 Y84.498 F3000
G1 E0.6000 F1800
G1 X63.183 Y85.807 E0.0414 F682
G1 X54.889 Y91.094 E0.3108
G1 X54.697 Y90.929 E0.0080
G1 X54.900 Y90.472 E0.0158
G1 X54.994 Y90.104 E0.0120
G1 X55.023 Y89.768 E0.0107
G1 X55.023 Y84.810 E0.1566
G1 X55.030 Y84.722 E0.0028
G1 X55.043 Y84.677 E0.0015
G1 X55.062 Y84.635 E0.0015
G1 X55.089 Y84.597 E0.0015
G1 X55.122 Y84.564 E0.0015
G1 X55.160 Y84.537 E0.0015
G1 X55.202 Y84.518 E0.0015
G1 X55.246 Y84.506 E0.0015
G1 X55.336 Y84.498 E0.0029
G1 X63.183 Y84.498 E0.2479
G1 X63.583 Y84.098 F3000
G1 X63.583 Y86.026 E0.0609 F682
G1 X44.807 Y97.995 E0.7035
G1 X44.230 Y98.308 E0.0207
G1 X43.635 Y98.529 E0.0201
G1 X43.014 Y98.663 E0.0201
G1 X42.649 Y98.689 E0.0116
G1 X42.566 Y98.437 E0.0084
G1 X53.779 Y91.289 E0.4202
G1 X54.008 Y91.115 E0.0091
G1 X54.221 Y90.887 E0.0099
G1 X54.394 Y90.626 E0.0099
G1 X54.521 Y90.340 E0.0099
G1 X54.599 Y90.038 E0.0099
G1 X54.623 Y89.751 E0.0091
G1 X54.623 Y84.792 E0.1567
G1 X54.635 Y84.652 E0.0045
G1 X54.665 Y84.539 E0.0037
G1 X54.714 Y84.434 E0.0037
G1 X54.781 Y84.338 E0.0037
G1 X54.863 Y84.256 E0.0037
G1 X54.959 Y84.189 E0.0037
G1 X55.064 Y84.140 E0.0037
G1 X55.177 Y84.110 E0.0037
G1 X55.319 Y84.098 E0.0045
G1 X63.583 Y84.098 E0.2611
; feature outer perimeter
G1 X63.983 Y83.698 F3000
G1 X63.983 Y86.245 E0.0805 F682
G1 X45.010 Y98.340 E0.7109
G1 X44.396 Y98.673 E0.0221
G1 X43.747 Y98.914 E0.0219
G1 X43.071 Y99.060 E0.0219
G1 X42.375 Y99.109 E0.0220
G1 X41.766 Y99.102 E0.0193
G1 X41.729 Y99.093 E0.0012
G1 X41.631 Y99.037 E0.0036
G1 X41.563 Y98.958 E0.0033
G1 X41.525 Y98.861 E0.0033
G1 X41.523 Y98.757 E0.0033
G1 X41.555 Y98.658 E0.0033
G1 X41.624 Y98.569 E0.0036
G1 X41.666 Y98.537 E0.0017
G1 X53.550 Y90.961 E0.4453
G1 X53.739 Y90.817 E0.0075
G1 X53.907 Y90.638 E0.0078
G1 X54.042 Y90.433 E0.0078
G1 X54.142 Y90.209 E0.0078
G1 X54.203 Y89.971 E0.0078
G1 X54.223 Y89.734 E0.0075
G1 X54.223 Y84.775 E0.1567
G1 X54.240 Y84.582 E0.0061
G1 X54.288 Y84.402 E0.0059
G1 X54.367 Y84.233 E0.0059
G1 X54.474 Y84.080 E0.0059
G1 X54.605 Y83.949 E0.0059
G1 X54.758 Y83.842 E0.0059
G1 X54.927 Y83.763 E0.0059
G1 X55.107 Y83.715 E0.0059
G1 X55.301 Y83.698 E0.0062
G1 X63.983 Y83.698 E0.2743
; feature internal single extrusion
; tool H0.200 W0.200
G1 X54.432 Y90.969 F3000
G1 X54.428 Y91.050 E0.0013 F682
; tool H0.200 W0.204
G1 X54.434 Y91.158 E0.0017
; tool H0.200 W0.353
G1 X54.440 Y91.258 E0.0028
; tool H0.200 W0.463
G1 X54.420 Y91.334 E0.0029
; tool H0.200 W0.492
G1 X54.366 Y91.378 E0.0027
; tool H0.200 W0.472
G1 X54.297 Y91.435 E0.0033
; tool H0.200 W0.457
G1 X54.217 Y91.491 E0.0035
; tool H0.200 W0.446
G1 X54.089 Y91.581 E0.0055
; tool H0.200 W0.436
G1 X54.017 Y91.631 E0.0030
; tool H0.200 W0.432
G1 X53.943 Y91.678 E0.0030
