; G-Code generated by Simplify3D(R) Version 4.1.2
; Sep 3, 2021 at 2:56:44 PM
; Settings Summary
;   processName,Process1
;   applyToModels,3DBenchy Boat
;   profileName,ANXP 10.1.2 E1 S3D (modified)
;   profileVersion,2021-08-27 11:04:25
;   baseProfile,Default
;   printMaterial,
;   printQuality,
;   printExtruders,
;   extruderName,Extruder 1
;   extruderToolheadNumber,0
;   extruderDiameter,0.4
;   extruderAutoWidth,0
;   extruderWidth,0.42
;   extrusionMultiplier,0.95
;   extruderUseRetract,1
;   extruderRetractionDistance,0.3
;   extruderExtraRestartDistance,0.03
;   extruderRetractionZLift,0.1
;   extruderRetractionSpeed,1200
;   extruderUseCoasting,0
;   extruderCoastingDistance,0.5
;   extruderUseWipe,0
;   extruderWipeDistance,0.5
;   primaryExtruder,0
;   layerHeight,0.2
;   topSolidLayers,4
;   bottomSolidLayers,4
;   perimeterOutlines,2
;   printPerimetersInsideOut,1
;   startPointOption,3
;   startPointOriginX,100
;   startPointOriginY,0
;   sequentialIslands,1
;   spiralVaseMode,0
;   firstLayerHeightPercentage,200
;   firstLayerWidthPercentage,150
;   firstLayerUnderspeed,0.5
;   useRaft,0
;   raftExtruder,0
;   raftTopLayers,2
;   raftBaseLayers,1
;   raftOffset,4
;   raftSeparationDistance,0.08
;   raftTopInfill,100
;   aboveRaftSpeedMultiplier,0.3
;   useSkirt,1
;   skirtExtruder,0
;   skirtLayers,1
;   skirtOutlines,1
;   skirtOffset,1
;   usePrimePillar,0
;   primePillarExtruder,999
;   primePillarWidth,12
;   primePillarLocation,7
;   primePillarSpeedMultiplier,1
;   useOozeShield,0
;   oozeShieldExtruder,999
;   oozeShieldOffset,2
;   oozeShieldOutlines,1
;   oozeShieldSidewallShape,1
;   oozeShieldSidewallAngle,30
;   oozeShieldSpeedMultiplier,1
;   infillExtruder,0
;   internalInfillPattern,Rectilinear
;   externalInfillPattern,Rectilinear
;   infillPercentage,50
;   outlineOverlapPercentage,25
;   infillExtrusionWidthPercentage,100
;   minInfillLength,2
;   infillLayerInterval,1
;   internalInfillAngles,45,0,-45,90
;   overlapInternalInfillAngles,0
;   externalInfillAngles,45,-45
;   generateSupport,0
;   supportExtruder,0
;   supportInfillPercentage,15
;   supportExtraInflation,0.4
;   supportBaseLayers,1
;   denseSupportExtruder,0
;   denseSupportLayers,2
;   denseSupportInfillPercentage,90
;   supportLayerInterval,1
;   supportHorizontalPartOffset,0.4
;   supportUpperSeparationLayers,1
;   supportLowerSeparationLayers,1
;   supportType,0
;   supportGridSpacing,2
;   maxOverhangAngle,55
;   supportAngles,45,-45
;   temperatureName,Extruder 1
;   temperatureNumber,0
;   temperatureSetpointCount,2
;   temperatureSetpointLayers,1,2
;   temperatureSetpointTemperatures,202,205
;   temperatureStabilizeAtStartup,1
;   temperatureHeatedBed,0
;   fanLayers,1,3
;   fanSpeeds,40,100
;   blipFanToFullPower,0
;   adjustSpeedForCooling,1
;   minSpeedLayerTime,10
;   minCoolingSpeedSlowdown,30
;   increaseFanForCooling,1
;   minFanLayerTime,5
;   maxCoolingFanSpeed,100
;   increaseFanForBridging,1
;   bridgingFanSpeed,50
;   use5D,1
;   relativeEdistances,1
;   allowEaxisZeroing,1
;   independentExtruderAxes,0
;   includeM10123,0
;   stickySupport,1
;   applyToolheadOffsets,0
;   gcodeXoffset,0
;   gcodeYoffset,0
;   gcodeZoffset,0
;   overrideMachineDefinition,1
;   machineTypeOverride,0
;   strokeXoverride,255
;   strokeYoverride,155
;   strokeZoverride,200
;   originOffsetXoverride,0
;   originOffsetYoverride,0
;   originOffsetZoverride,0
;   homeXdirOverride,-1
;   homeYdirOverride,-1
;   homeZdirOverride,1
;   flipXoverride,1
;   flipYoverride,-1
;   flipZoverride,1
;   toolheadOffsets,0,0|0,0|0,0|0,0|0,0|0,0
;   overrideFirmwareConfiguration,0
;   firmwareTypeOverride,RepRap (Marlin/Repetier/Sprinter)
;   GPXconfigOverride,r2
;   baudRateOverride,250000
;   overridePrinterModels,0
;   printerModelsOverride
;   startingGcode,M83 ; relative extrusion mode,,;Pressure advances,M572 D0 S0.06                      ;Pressure advance enabled,M400 ; Finish all current moves and for pressure advances.,,,;Wipe nozzle before printing,G1 Z10 F1200			; Go to wipe position,G1 X20 Y165 F6000 		; Go to wipe position,G1 Z0.2 F1200			; Go to wipe height,G91			         ; relative movement for wipe extrusion,G1 E10.0 F300		         ; Extrude 10mm for wipe,M400			         ; wait for moves to finishng,G90			         ; world coordinate position,G92 E0			         ; zero extruder,G4 S1			         ; wait for wipe to drop,G1 Y140.0 E1 F900	         ; Move on bed wipe the nozzle,		                 ;MHI3D CODE END
;   layerChangeGcode,
;   retractionGcode,
;   toolChangeGcode,
;   endingGcode,G28 Z0	;Home Z,G91	;Relative movement for wipe extrusion,G1 E-2.0 F120	;Extrude 10mm for wipe,M400	; wait for moves to finishng,G90	; world coordinate position,G92 E0	; zero extruder,,G28	;Home,M104 S0	;Set Extruder Temperature,M140 S0	;Set Bed Temperature (Fast) or Configure Bed Heater,G90	;Set to Absolute Positioning,M18 X Z E0	;Disable XZE stepper motors,G1 Y145 F3000	;Move,G92 E0	;Set position,M107	;Fan off,M18 Y	;Disable Y stepper motor
;   exportFileFormat,gcode
;   celebration,0
;   celebrationSong,Random Song
;   postProcessing,
;   defaultSpeed,2100
;   outlineUnderspeed,1
;   solidInfillUnderspeed,1
;   supportUnderspeed,1
;   rapidXYspeed,3000
;   rapidZspeed,2100
;   minBridgingArea,15
;   bridgingExtraInflation,1
;   bridgingExtrusionMultiplier,1
;   bridgingSpeedMultiplier,0.5
;   useFixedBridgingAngle,0
;   fixedBridgingAngle,0
;   applyBridgingToPerimeters,1
;   filamentDiameters,1.75|1.75|1.75|1.75|1.75|1.75
;   filamentPricesPerKg,186|46|46|46|46|46
;   filamentDensities,1.25|1.25|1.25|1.25|1.25|1.25
;   useMinPrintHeight,0
;   minPrintHeight,0
;   useMaxPrintHeight,0
;   maxPrintHeight,0
;   useDiaphragm,0
;   diaphragmLayerInterval,20
;   robustSlicing,1
;   mergeAllIntoSolid,0
;   onlyRetractWhenCrossingOutline,1
;   retractBetweenLayers,0
;   useRetractionMinTravel,1
;   retractionMinTravel,2
;   retractWhileWiping,0
;   onlyWipeOutlines,0
;   avoidCrossingOutline,0
;   maxMovementDetourFactor,3
;   toolChangeRetractionDistance,20
;   toolChangeExtraRestartDistance,0
;   toolChangeRetractionSpeed,600
;   externalThinWallType,0
;   internalThinWallType,1
;   thinWallAllowedOverlapPercentage,10
;   singleExtrusionMinLength,5
;   singleExtrusionMinPrintingWidthPercentage,70
;   singleExtrusionMaxPrintingWidthPercentage,130
;   singleExtrusionEndpointExtension,0.1
;   horizontalSizeCompensation,0
G90
M83
M106 S102
M104 S202 T0
M109 S202 T0
M83 ; relative extrusion mode
;Pressure advances
M572 D0 S0.06                      ;Pressure advance enabled
M400 ; Finish all current moves and for pressure advances.
;Wipe nozzle before printing
G1 Z10 F1200			; Go to wipe position
G1 X20 Y165 F6000 		; Go to wipe position
G1 Z0.2 F1200			; Go to wipe height
G91			         ; relative movement for wipe extrusion
G1 E10.0 F300		         ; Extrude 10mm for wipe
M400			         ; wait for moves to finishng
G90			         ; world coordinate position
G92 E0			         ; zero extruder
G4 S1			         ; wait for wipe to drop
G1 Y140.0 E1 F900	         ; Move on bed wipe the nozzle
		                 ;MHI3D CODE END
; process Process1
; layer 1, Z = 0.400
T0
G1 E-0.3000 F1200
; feature skirt
; tool H0.400 W0.630
G1 Z0.400 F2100
G1 X30.974 Y24.388 F3000
G1 E0.3300 F1200
G1 X31.236 Y25.215 E0.0863 F1050
G1 X31.246 Y25.250 E0.0036
G1 X31.462 Y26.090 E0.0863
G1 X31.470 Y26.125 E0.0036
G1 X31.642 Y26.990 E0.0879
G1 X31.648 Y27.026 E0.0036
G1 X31.765 Y27.843 E0.0822
G1 X31.769 Y27.878 E0.0035
G1 X31.845 Y28.750 E0.0871
G1 X31.848 Y28.786 E0.0036
G1 X31.875 Y29.626 E0.0837
G1 X31.875 Y29.663 E0.0037
G1 X31.855 Y30.549 E0.0882
G1 X31.854 Y30.574 E0.0025
G1 X30.389 Y54.336 E2.3695
G1 X30.369 Y54.463 E0.0129
G1 X30.202 Y55.092 E0.0647
G1 X30.131 Y55.262 E0.0184
G1 X29.787 Y55.836 E0.0666
G1 X29.666 Y55.985 E0.0191
G1 X29.185 Y56.424 E0.0649
G1 X29.050 Y56.520 E0.0165
G1 X28.593 Y56.763 E0.0515
G1 X28.467 Y56.814 E0.0135
G1 X27.982 Y56.955 E0.0503
G1 X27.859 Y56.978 E0.0125
G1 X27.380 Y57.023 E0.0479
G1 X27.319 Y57.025 E0.0060
G1 X17.317 Y57.021 E0.9956
G1 X17.236 Y57.016 E0.0080
G1 X16.899 Y56.975 E0.0338
G1 X16.817 Y56.959 E0.0084
G1 X16.468 Y56.870 E0.0358
G1 X16.344 Y56.824 E0.0132
G1 X15.762 Y56.541 E0.0644
G1 X15.606 Y56.435 E0.0188
G1 X15.113 Y55.986 E0.0664
G1 X14.991 Y55.837 E0.0192
G1 X14.654 Y55.274 E0.0653
G1 X14.589 Y55.127 E0.0160
G1 X14.442 Y54.643 E0.0503
G1 X14.419 Y54.533 E0.0112
G1 X14.378 Y54.205 E0.0329
G1 X14.374 Y54.164 E0.0041
G1 X12.931 Y30.698 E2.3400
G1 X12.930 Y30.666 E0.0032
G1 X12.911 Y29.206 E0.1453
G1 X12.913 Y29.144 E0.0061
G1 X13.030 Y27.702 E0.1440
G1 X13.036 Y27.653 E0.0049
G1 X13.175 Y26.771 E0.0889
G1 X13.182 Y26.733 E0.0038
G1 X13.385 Y25.801 E0.0949
G1 X13.398 Y25.753 E0.0050
G1 X13.809 Y24.374 E0.1432
G1 X13.825 Y24.328 E0.0048
G1 X14.138 Y23.506 E0.0876
G1 X14.150 Y23.477 E0.0031
G1 X14.402 Y22.899 E0.0628
G1 X14.422 Y22.858 E0.0045
G1 X15.103 Y21.550 E0.1469
G1 X15.128 Y21.506 E0.0050
G1 X15.611 Y20.728 E0.0912
G1 X15.631 Y20.698 E0.0036
G1 X16.073 Y20.066 E0.0768
G1 X16.091 Y20.041 E0.0030
G1 X16.532 Y19.468 E0.0719
G1 X16.559 Y19.436 E0.0042
G1 X17.369 Y18.512 E0.1223
G1 X17.399 Y18.480 E0.0044
G1 X18.020 Y17.861 E0.0872
G1 X18.055 Y17.829 E0.0048
G1 X19.150 Y16.887 E0.1437
G1 X19.189 Y16.856 E0.0050
G1 X19.938 Y16.305 E0.0926
G1 X19.980 Y16.277 E0.0050
G1 X21.172 Y15.532 E0.1399
G1 X21.307 Y15.467 E0.0149
G1 X21.781 Y15.305 E0.0498
G1 X21.937 Y15.272 E0.0159
G1 X22.387 Y15.232 E0.0450
G1 X22.541 Y15.237 E0.0154
G1 X22.980 Y15.301 E0.0442
G1 X23.119 Y15.337 E0.0142
G1 X23.517 Y15.489 E0.0424
G1 X23.623 Y15.540 E0.0118
G1 X24.360 Y15.985 E0.0856
G1 X24.391 Y16.005 E0.0037
G1 X25.132 Y16.511 E0.0893
G1 X25.173 Y16.542 E0.0051
G1 X26.355 Y17.493 E0.1510
G1 X26.392 Y17.525 E0.0049
G1 X27.009 Y18.103 E0.0841
G1 X27.033 Y18.127 E0.0034
G1 X27.581 Y18.696 E0.0786
G1 X27.613 Y18.732 E0.0048
G1 X28.573 Y19.888 E0.1496
G1 X28.602 Y19.925 E0.0047
G1 X29.019 Y20.507 E0.0713
G1 X29.042 Y20.543 E0.0042
G1 X29.737 Y21.659 E0.1309
G1 X29.765 Y21.709 E0.0057
G1 X30.425 Y23.009 E0.1450
G1 X30.449 Y23.063 E0.0060
G1 X30.959 Y24.344 E0.1372
G1 X30.974 Y24.388 E0.0047
G1 E-0.3000 F1200
; feature inner perimeter
G1 Z0.500 F2100
G1 X19.925 Y19.153 F3000
G1 Z0.400 F2100
G1 E0.3300 F1200
G1 X19.925 Y21.910 E0.2743 F1050
G1 X19.946 Y22.210 E0.0300
G1 X20.020 Y22.552 E0.0348
G1 X20.147 Y22.846 E0.0319
G1 X20.289 Y23.022 E0.0225
G1 X19.999 Y23.433 E0.0501
G1 X19.904 Y24.022 E0.0594
G1 X20.067 Y24.509 E0.0511
G1 X20.333 Y24.847 E0.0427
G1 X20.787 Y25.201 E0.0574
G1 X20.325 Y25.621 E0.0622
G1 X20.139 Y25.874 E0.0312
G1 X19.999 Y26.197 E0.0351
G1 X19.936 Y26.486 E0.0294
G1 X19.923 Y26.797 E0.0309
G1 X20.009 Y27.220 E0.0430
G1 X20.293 Y27.674 E0.0533
G1 X20.102 Y27.882 E0.0282
G1 X19.907 Y28.428 E0.0577
G1 X19.965 Y28.927 E0.0500
G1 X20.150 Y29.309 E0.0422
G1 X20.404 Y29.614 E0.0396
G1 X20.202 Y29.822 E0.0288
G1 X20.009 Y30.166 E0.0393
G1 X19.928 Y30.484 E0.0327
G1 X19.925 Y30.788 E0.0303
G1 X19.985 Y31.087 E0.0303
G1 X20.100 Y31.356 E0.0291
G1 X20.265 Y31.604 E0.0297
G1 X20.512 Y31.836 E0.0337
G1 X20.908 Y32.034 E0.0441
G1 X21.322 Y32.073 E0.0414
G1 X21.628 Y32.031 E0.0307
G1 X22.001 Y31.905 E0.0392
G1 X23.011 Y31.343 E0.1150
G1 X23.313 Y31.661 E0.0436
G1 X23.000 Y32.167 E0.0592
G1 X22.845 Y32.618 E0.0475
G1 X22.777 Y33.246 E0.0629
G1 X22.384 Y33.224 E0.0391
G1 X21.983 Y33.234 E0.0399
G1 X21.619 Y33.266 E0.0364
G1 X21.254 Y33.324 E0.0368
G1 X20.926 Y33.402 E0.0336
G1 X20.615 Y33.503 E0.0325
G1 X20.316 Y33.627 E0.0322
G1 X20.031 Y33.778 E0.0321
G1 X19.715 Y33.988 E0.0377
G1 X19.278 Y34.385 E0.0588
G1 X19.075 Y34.640 E0.0324
G1 X18.919 Y34.887 E0.0290
G1 X18.793 Y35.146 E0.0287
G1 X18.687 Y35.436 E0.0307
G1 X18.556 Y36.034 E0.0610
G1 X18.494 Y36.786 E0.0751
G1 X18.480 Y38.197 E0.1405
G1 X18.524 Y38.513 E0.0317
G1 X18.604 Y38.776 E0.0273
G1 X18.739 Y39.051 E0.0305
G1 X19.031 Y39.388 E0.0443
G1 X19.485 Y39.611 E0.0504
G1 X19.035 Y39.978 E0.0578
G1 X18.758 Y40.314 E0.0434
G1 X18.555 Y40.691 E0.0426
G1 X18.443 Y41.005 E0.0331
G1 X18.333 Y41.584 E0.0587
G1 X18.318 Y42.248 E0.0661
G1 X18.361 Y42.648 E0.0400
G1 X18.457 Y43.073 E0.0433
G1 X18.617 Y43.480 E0.0435
G1 X18.931 Y44.014 E0.0617
G1 X18.701 Y44.271 E0.0343
G1 X18.540 Y44.631 E0.0393
G1 X18.489 Y44.937 E0.0309
G1 X18.500 Y48.283 E0.3330
G1 X18.454 Y48.977 E0.0692
G1 X18.495 Y49.285 E0.0309
G1 X18.634 Y49.644 E0.0383
G1 X19.041 Y50.130 E0.0631
G1 X18.864 Y50.337 E0.0271
G1 X18.628 Y50.723 E0.0450
G1 X18.464 Y51.126 E0.0433
G1 X18.359 Y51.581 E0.0464
G1 X18.324 Y51.922 E0.0342
G1 X18.319 Y52.347 E0.0423
G1 X18.345 Y52.684 E0.0336
G1 X18.430 Y53.135 E0.0457
G1 X18.579 Y53.571 E0.0458
G1 X18.725 Y53.872 E0.0333
G1 X18.966 Y54.248 E0.0445
G1 X19.393 Y54.762 E0.0665
G1 X17.416 Y54.761 E0.1968
G1 X17.279 Y54.744 E0.0138
G1 X17.155 Y54.713 E0.0127
G1 X17.046 Y54.669 E0.0117
G1 X16.953 Y54.615 E0.0107
G1 X16.873 Y54.552 E0.0101
G1 X16.804 Y54.480 E0.0099
G1 X16.746 Y54.396 E0.0102
G1 X16.704 Y54.314 E0.0092
G1 X16.644 Y54.117 E0.0204
G1 X16.627 Y53.976 E0.0142
G1 X15.188 Y30.586 E2.3324
G1 X15.166 Y29.995 E0.0589
G1 X15.171 Y29.252 E0.0740
G1 X15.211 Y28.578 E0.0672
G1 X15.276 Y27.956 E0.0622
G1 X15.400 Y27.168 E0.0794
G1 X15.583 Y26.331 E0.0853
G1 X15.752 Y25.715 E0.0636
G1 X15.954 Y25.088 E0.0656
G1 X16.236 Y24.347 E0.0789
G1 X16.455 Y23.845 E0.0545
G1 X16.807 Y23.138 E0.0786
G1 X17.073 Y22.658 E0.0546
G1 X17.508 Y21.957 E0.0821
G1 X17.904 Y21.390 E0.0688
G1 X18.297 Y20.880 E0.0641
G1 X18.652 Y20.460 E0.0548
G1 X19.026 Y20.050 E0.0553
G1 X19.925 Y19.153 E0.1263
G1 X20.965 Y18.334 F3000
G1 X21.746 Y17.819 E0.0931 F1050
G1 X22.230 Y17.534 E0.0559
G1 X22.289 Y17.510 E0.0063
G1 X22.398 Y17.500 E0.0110
G1 X22.479 Y17.512 E0.0081
G1 X22.579 Y17.550 E0.0107
G1 X23.153 Y17.896 E0.0667
G1 X23.814 Y18.348 E0.0797
G1 X24.070 Y18.545 E0.0322
G1 X23.709 Y19.075 E0.0639
G1 X23.585 Y19.500 E0.0440
G1 X22.454 Y18.704 E0.1376
G1 X22.205 Y18.567 E0.0283
G1 X21.836 Y18.430 E0.0391
G1 X20.965 Y18.334 E0.0873
G1 E-0.3000 F1200
G1 Z0.500 F2100
G1 X26.403 Y21.435 F3000
G1 Z0.400 F2100
G1 E0.3300 F1200
G1 X26.803 Y21.296 E0.0422 F1050
G1 X27.157 Y21.790 E0.0605
G1 X27.480 Y22.283 E0.0587
G1 X27.783 Y22.795 E0.0592
G1 X28.068 Y23.323 E0.0597
G1 X28.377 Y23.966 E0.0710
G1 X28.618 Y24.536 E0.0616
G1 X28.860 Y25.185 E0.0690
G1 X28.495 Y25.436 E0.0441
G1 X28.013 Y25.009 E0.0641
G1 X27.751 Y24.836 E0.0312
G1 X27.174 Y24.554 E0.0640
G1 X25.969 Y24.081 E0.1288
G1 X24.847 Y23.679 E0.1187
G1 X25.659 Y23.376 E0.0863
G1 X25.934 Y23.205 E0.0323
G1 X26.173 Y22.966 E0.0336
G1 X26.372 Y22.596 E0.0419
G1 X26.440 Y22.184 E0.0415
G1 X26.403 Y21.435 E0.0746
G1 X28.934 Y27.235 F3000
G1 X29.399 Y27.260 E0.0464 F1050
G1 X29.521 Y28.119 E0.0864
G1 X29.590 Y28.904 E0.0784
G1 X29.615 Y29.656 E0.0749
G1 X29.596 Y30.466 E0.0806
G1 X28.141 Y54.071 E2.3539
G1 X28.118 Y54.193 E0.0124
G1 X28.082 Y54.299 E0.0112
G1 X28.033 Y54.395 E0.0107
G1 X27.974 Y54.480 E0.0103
G1 X27.905 Y54.552 E0.0099
G1 X27.840 Y54.603 E0.0082
G1 X27.677 Y54.690 E0.0184
G1 X27.499 Y54.742 E0.0185
G1 X27.246 Y54.765 E0.0252
G1 X25.369 Y54.765 E0.1868
G1 X25.867 Y54.064 E0.0855
G1 X26.025 Y53.793 E0.0312
G1 X26.162 Y53.488 E0.0333
G1 X26.306 Y53.013 E0.0494
G1 X26.363 Y52.672 E0.0345
G1 X26.390 Y52.313 E0.0358
G1 X26.362 Y51.672 E0.0638
G1 X26.239 Y51.112 E0.0571
G1 X26.123 Y50.813 E0.0319
G1 X25.988 Y50.556 E0.0289
G1 X25.830 Y50.320 E0.0283
G1 X25.642 Y50.102 E0.0287
G1 X25.427 Y49.907 E0.0289
G1 X25.192 Y49.742 E0.0286
G1 X24.939 Y49.610 E0.0283
G1 X24.557 Y49.470 E0.0405
G1 X24.159 Y49.488 E0.0397
G1 X23.847 Y49.585 E0.0325
G1 X23.553 Y49.762 E0.0341
G1 X23.281 Y50.052 E0.0397
G1 X23.124 Y50.329 E0.0317
G1 X23.021 Y50.624 E0.0310
G1 X22.971 Y51.055 E0.0432
G1 X23.085 Y51.584 E0.0539
G1 X23.344 Y51.970 E0.0462
G1 X23.498 Y52.093 E0.0196
G1 X23.504 Y52.252 E0.0159
G1 X23.489 Y52.352 E0.0101
G1 X23.442 Y52.494 E0.0148
G1 X23.351 Y52.591 E0.0133
G1 X23.273 Y52.636 E0.0089
G1 X23.190 Y52.671 E0.0090
G1 X22.973 Y52.732 E0.0223
G1 X22.837 Y52.754 E0.0138
