; G-Code generated by Simplify3D(R) Version 4.1.2
; Feb 7, 2022 at 12:50:17 PM
; Settings Summary
;   processName,Process1
;   applyToModels,treefrog_45_cut (1)
;   profileName,B_TPS 90A_1.0.0_E1_S3D
;   profileVersion,2022-02-07 12:49:38
;   baseProfile,Default
;   printMaterial,
;   printQuality,
;   printExtruders,
;   extruderName,Extruder 1
;   extruderToolheadNumber,0
;   extruderDiameter,0.4
;   extruderAutoWidth,0
;   extruderWidth,0.48
;   extrusionMultiplier,1.2
;   extruderUseRetract,1
;   extruderRetractionDistance,1
;   extruderExtraRestartDistance,0.03
;   extruderRetractionZLift,0.2
;   extruderRetractionSpeed,780
;   extruderUseCoasting,0
;   extruderCoastingDistance,0.5
;   extruderUseWipe,0
;   extruderWipeDistance,0.5
;   primaryExtruder,0
;   layerHeight,0.2
;   topSolidLayers,4
;   bottomSolidLayers,4
;   perimeterOutlines,3
;   printPerimetersInsideOut,1
;   startPointOption,1
;   startPointOriginX,100
;   startPointOriginY,0
;   sequentialIslands,1
;   spiralVaseMode,0
;   firstLayerHeightPercentage,150
;   firstLayerWidthPercentage,100
;   firstLayerUnderspeed,0.3
;   useRaft,0
;   raftExtruder,0
;   raftTopLayers,2
;   raftBaseLayers,1
;   raftOffset,4
;   raftSeparationDistance,0.08
;   raftTopInfill,100
;   aboveRaftSpeedMultiplier,0.3
;   useSkirt,1
;   skirtExtruder,0
;   skirtLayers,1
;   skirtOutlines,2
;   skirtOffset,1
;   usePrimePillar,0
;   primePillarExtruder,999
;   primePillarWidth,12
;   primePillarLocation,7
;   primePillarSpeedMultiplier,1
;   useOozeShield,0
;   oozeShieldExtruder,999
;   oozeShieldOffset,2
;   oozeShieldOutlines,1
;   oozeShieldSidewallShape,1
;   oozeShieldSidewallAngle,30
;   oozeShieldSpeedMultiplier,1
;   infillExtruder,0
;   internalInfillPattern,Rectilinear
;   externalInfillPattern,Rectilinear
;   infillPercentage,20
;   outlineOverlapPercentage,10
;   infillExtrusionWidthPercentage,100
;   minInfillLength,2
;   infillLayerInterval,1
;   internalInfillAngles,45,-45
;   overlapInternalInfillAngles,0
;   externalInfillAngles,45,-45
;   generateSupport,0
;   supportExtruder,0
;   supportInfillPercentage,20
;   supportExtraInflation,0.3
;   supportBaseLayers,1
;   denseSupportExtruder,0
;   denseSupportLayers,2
;   denseSupportInfillPercentage,100
;   supportLayerInterval,1
;   supportHorizontalPartOffset,0.3
;   supportUpperSeparationLayers,1
;   supportLowerSeparationLayers,1
;   supportType,0
;   supportGridSpacing,1
;   maxOverhangAngle,45
;   supportAngles,45,-45
;   temperatureName,Extruder 1
;   temperatureNumber,0
;   temperatureSetpointCount,2
;   temperatureSetpointLayers,1,2
;   temperatureSetpointTemperatures,250,260
;   temperatureStabilizeAtStartup,1
;   temperatureHeatedBed,0
;   fanLayers,1
;   fanSpeeds,45
;   blipFanToFullPower,0
;   adjustSpeedForCooling,1
;   minSpeedLayerTime,15
;   minCoolingSpeedSlowdown,30
;   increaseFanForCooling,1
;   minFanLayerTime,5
;   maxCoolingFanSpeed,100
;   increaseFanForBridging,1
;   bridgingFanSpeed,100
;   use5D,1
;   relativeEdistances,1
;   allowEaxisZeroing,1
;   independentExtruderAxes,0
;   includeM10123,0
;   stickySupport,1
;   applyToolheadOffsets,0
;   gcodeXoffset,0
;   gcodeYoffset,0
;   gcodeZoffset,0
;   overrideMachineDefinition,1
;   machineTypeOverride,0
;   strokeXoverride,255
;   strokeYoverride,155
;   strokeZoverride,200
;   originOffsetXoverride,0
;   originOffsetYoverride,0
;   originOffsetZoverride,0
;   homeXdirOverride,-1
;   homeYdirOverride,-1
;   homeZdirOverride,1
;   flipXoverride,1
;   flipYoverride,-1
;   flipZoverride,1
;   toolheadOffsets,0,0|0,0|0,0|0,0|0,0|0,0
;   overrideFirmwareConfiguration,0
;   firmwareTypeOverride,RepRap (Marlin/Repetier/Sprinter)
;   GPXconfigOverride,r2
;   baudRateOverride,250000
;   overridePrinterModels,0
;   printerModelsOverride
;   startingGcode,M83 ; relative extrusion mode,,;Pressure advances,M572 D0 S0.04                      ;Pressure advance enabled 0.04,M400 ; Finish all current moves and for pressure advances.,,,;Wipe nozzle before printing,G1 Z10 F1200			; Go to wipe position,G1 X20 Y165 F6000 		; Go to wipe position,G1 Z0.2 F1200			; Go to wipe height,G91			         ; relative movement for wipe extrusion,G1 E10.0 F300		         ; Extrude 10mm for wipe,M400			         ; wait for moves to finishng,G90			         ; world coordinate position,G92 E0			         ; zero extruder,G4 S1			         ; wait for wipe to drop,G1 Y140.0 E1 F900	         ; Move on bed wipe the nozzle,		                 ;MHI3D CODE END
;   layerChangeGcode,
;   retractionGcode,
;   toolChangeGcode,
;   endingGcode,G28 Z0	;Home Z,G91	;Relative movement for wipe extrusion,G1 E-2.0 F120	;Extrude 10mm for wipe,M400	; wait for moves to finishng,G90	; world coordinate position,G92 E0	; zero extruder,,G28	;Home,M104 S0	;Set Extruder Temperature,M140 S0	;Set Bed Temperature (Fast) or Configure Bed Heater,G90	;Set to Absolute Positioning,M18 X Z E0	;Disable XZE stepper motors,G1 Y145 F3000	;Move,G92 E0	;Set position,M107	;Fan off,M18 Y	;Disable Y stepper motor
;   exportFileFormat,gcode
;   celebration,0
;   celebrationSong,Random Song
;   postProcessing,
;   defaultSpeed,900
;   outlineUnderspeed,1
;   solidInfillUnderspeed,1
;   supportUnderspeed,1
;   rapidXYspeed,3000
;   rapidZspeed,900
;   minBridgingArea,15
;   bridgingExtraInflation,0.4
;   bridgingExtrusionMultiplier,1
;   bridgingSpeedMultiplier,1
;   useFixedBridgingAngle,0
;   fixedBridgingAngle,0
;   applyBridgingToPerimeters,1
;   filamentDiameters,1.75|1.75|1.75|1.75|1.75|1.75
;   filamentPricesPerKg,186|46|46|46|46|46
;   filamentDensities,1.25|1.25|1.25|1.25|1.25|1.25
;   useMinPrintHeight,0
;   minPrintHeight,0
;   useMaxPrintHeight,0
;   maxPrintHeight,10
;   useDiaphragm,0
;   diaphragmLayerInterval,20
;   robustSlicing,1
;   mergeAllIntoSolid,0
;   onlyRetractWhenCrossingOutline,1
;   retractBetweenLayers,0
;   useRetractionMinTravel,1
;   retractionMinTravel,2
;   retractWhileWiping,0
;   onlyWipeOutlines,0
;   avoidCrossingOutline,0
;   maxMovementDetourFactor,3
;   toolChangeRetractionDistance,20
;   toolChangeExtraRestartDistance,0
;   toolChangeRetractionSpeed,600
;   externalThinWallType,0
;   internalThinWallType,1
;   thinWallAllowedOverlapPercentage,15
;   singleExtrusionMinLength,1
;   singleExtrusionMinPrintingWidthPercentage,50
;   singleExtrusionMaxPrintingWidthPercentage,200
;   singleExtrusionEndpointExtension,0.1
;   horizontalSizeCompensation,0
G90
M83
M106 S115
M104 S250 T0
M109 S250 T0
M83 ; relative extrusion mode
;Pressure advances
M572 D0 S0.04                      ;Pressure advance enabled 0.04
M400 ; Finish all current moves and for pressure advances.
;Wipe nozzle before printing
G1 Z10 F1200			; Go to wipe position
G1 X20 Y165 F6000 		; Go to wipe position
G1 Z0.2 F1200			; Go to wipe height
G91			         ; relative movement for wipe extrusion
G1 E10.0 F300		         ; Extrude 10mm for wipe
M400			         ; wait for moves to finishng
G90			         ; world coordinate position
G92 E0			         ; zero extruder
G4 S1			         ; wait for wipe to drop
G1 Y140.0 E1 F900	         ; Move on bed wipe the nozzle
		                 ;MHI3D CODE END
; process Process1
; layer 1, Z = 0.300
T0
G1 E-1.0000 F780
; feature skirt
; tool H0.300 W0.480
G1 Z0.300 F900
G1 X14.652 Y22.369 F3000
G1 E1.0300 F780
G1 X14.781 Y22.386 E0.0093 F270
G1 X15.327 Y22.518 E0.0404
G1 X15.452 Y22.563 E0.0095
G1 X15.947 Y22.802 E0.0395
G1 X16.067 Y22.879 E0.0103
G1 X16.496 Y23.226 E0.0396
G1 X16.594 Y23.326 E0.0101
G1 X16.915 Y23.737 E0.0374
G1 X16.983 Y23.846 E0.0093
G1 X17.186 Y24.261 E0.0332
G1 X17.239 Y24.421 E0.0121
G1 X17.334 Y24.933 E0.0374
G1 X17.344 Y25.032 E0.0071
G1 X17.354 Y25.464 E0.0310
G1 X17.344 Y25.591 E0.0091
G1 X17.181 Y26.477 E0.0647
G1 X17.180 Y26.601 E0.0089
G1 X17.204 Y26.794 E0.0140
G1 X17.253 Y26.987 E0.0143
G1 X17.443 Y27.399 E0.0326
G1 X17.758 Y27.966 E0.0467
G1 X17.760 Y27.639 E0.0235
G1 X17.783 Y27.475 E0.0119
G1 X17.988 Y26.740 E0.0549
G1 X18.044 Y26.604 E0.0106
G1 X18.275 Y26.189 E0.0341
G1 X18.325 Y26.114 E0.0065
G1 X18.669 Y25.665 E0.0406
G1 X18.762 Y25.568 E0.0097
G1 X19.247 Y25.161 E0.0455
G1 X19.371 Y25.079 E0.0107
G1 X19.996 Y24.770 E0.0501
G1 X20.168 Y24.714 E0.0130
G1 X20.871 Y24.595 E0.0513
G1 X21.036 Y24.589 E0.0119
G1 X21.750 Y24.659 E0.0515
G1 X21.929 Y24.704 E0.0133
G1 X22.594 Y24.981 E0.0517
G1 X22.745 Y25.071 E0.0126
G1 X23.299 Y25.517 E0.0511
G1 X23.431 Y25.663 E0.0142
G1 X23.808 Y26.244 E0.0497
G1 X23.877 Y26.390 E0.0116
G1 X24.082 Y27.020 E0.0476
G1 X24.113 Y27.203 E0.0133
G1 X24.123 Y27.828 E0.0448
G1 X24.111 Y27.960 E0.0096
G1 X23.999 Y28.516 E0.0407
G1 X23.957 Y28.646 E0.0098
G1 X23.745 Y29.124 E0.0375
G1 X23.694 Y29.217 E0.0076
G1 X23.435 Y29.602 E0.0333
G1 X23.367 Y29.687 E0.0078
G1 X23.063 Y30.004 E0.0315
G1 X22.985 Y30.072 E0.0074
G1 X22.634 Y30.333 E0.0315
G1 X22.546 Y30.387 E0.0074
G1 X21.848 Y30.745 E0.0564
G1 X21.691 Y30.998 E0.0214
G1 X21.668 Y31.032 E0.0030
G1 X21.206 Y31.678 E0.0571
G1 X21.176 Y31.745 E0.0053
G1 X20.888 Y33.037 E0.0951
G1 X20.789 Y33.599 E0.0410
G1 X20.773 Y34.774 E0.0844
G1 X20.762 Y34.884 E0.0080
G1 X20.696 Y35.218 E0.0244
G1 X20.620 Y35.418 E0.0154
G1 X20.326 Y35.911 E0.0412
G1 X20.072 Y36.149 E0.0250
G1 X19.498 Y36.443 E0.0463
G1 X19.082 Y36.501 E0.0302
G1 X18.455 Y36.375 E0.0460
G1 X18.242 Y36.290 E0.0165
G1 X17.640 Y35.907 E0.0513
G1 X17.029 Y35.781 E0.0448
G1 X16.926 Y35.750 E0.0078
G1 X16.541 Y35.597 E0.0298
G1 X16.483 Y35.571 E0.0045
G1 X15.983 Y35.310 E0.0405
G1 X15.908 Y35.264 E0.0063
G1 X14.865 Y34.518 E0.0921
G1 X14.809 Y34.473 E0.0052
G1 X14.415 Y34.115 E0.0382
G1 X14.193 Y33.953 E0.0197
G1 X14.158 Y33.934 E0.0029
G1 X13.751 Y33.873 E0.0295
G1 X13.575 Y33.871 E0.0127
G1 X13.240 Y33.904 E0.0242
G1 X13.011 Y33.984 E0.0175
G1 X12.592 Y34.210 E0.0342
G1 X12.533 Y34.237 E0.0046
G1 X12.054 Y34.434 E0.0372
G1 X11.934 Y34.470 E0.0090
G1 X11.507 Y34.551 E0.0312
G1 X11.383 Y34.562 E0.0090
G1 X10.940 Y34.556 E0.0318
G1 X10.830 Y34.544 E0.0080
G1 X10.411 Y34.462 E0.0307
G1 X10.309 Y34.433 E0.0076
G1 X9.889 Y34.273 E0.0323
G1 X9.776 Y34.216 E0.0091
G1 X9.385 Y33.967 E0.0333
G1 X9.280 Y33.883 E0.0097
G1 X8.934 Y33.537 E0.0351
G1 X8.849 Y33.431 E0.0098
G1 X8.566 Y32.986 E0.0378
G1 X8.493 Y32.824 E0.0128
G1 X8.342 Y32.296 E0.0394
G1 X8.319 Y32.167 E0.0094
G1 X8.282 Y31.613 E0.0399
G1 X8.291 Y31.456 E0.0113
G1 X8.398 Y30.888 E0.0415
G1 X8.438 Y30.755 E0.0100
G1 X8.671 Y30.219 E0.0420
G1 X8.738 Y30.101 E0.0098
G1 X9.083 Y29.627 E0.0421
G1 X9.184 Y29.518 E0.0107
G1 X9.633 Y29.137 E0.0423
G1 X9.772 Y29.048 E0.0118
G1 X10.281 Y28.809 E0.0404
G1 X10.430 Y28.761 E0.0113
G1 X10.957 Y28.661 E0.0385
G1 X11.132 Y28.653 E0.0126
G1 X11.635 Y28.702 E0.0363
G1 X11.779 Y28.733 E0.0106
G1 X12.306 Y28.916 E0.0400
G1 X12.431 Y28.976 E0.0100
G1 X13.177 Y29.443 E0.0632
G1 X13.376 Y29.525 E0.0155
G1 X13.605 Y29.577 E0.0169
G1 X13.381 Y29.042 E0.0417
G1 X13.169 Y28.621 E0.0339
G1 X13.012 Y28.371 E0.0212
G1 X12.942 Y28.288 E0.0078
G1 X12.925 Y28.274 E0.0016
G1 X12.396 Y27.964 E0.0441
G1 X12.308 Y27.901 E0.0077
G1 X11.803 Y27.473 E0.0475
G1 X11.696 Y27.356 E0.0114
G1 X11.422 Y26.966 E0.0343
G1 X11.359 Y26.850 E0.0095
G1 X11.174 Y26.413 E0.0341
G1 X11.134 Y26.275 E0.0104
G1 X11.053 Y25.795 E0.0350
G1 X11.044 Y25.670 E0.0090
G1 X11.062 Y25.164 E0.0364
G1 X11.082 Y25.026 E0.0100
G1 X11.218 Y24.509 E0.0385
G1 X11.263 Y24.390 E0.0091
G1 X11.507 Y23.899 E0.0394
G1 X11.575 Y23.792 E0.0091
G1 X11.933 Y23.336 E0.0416
G1 X12.030 Y23.238 E0.0099
G1 X12.504 Y22.853 E0.0439
G1 X12.639 Y22.769 E0.0114
G1 X13.201 Y22.513 E0.0444
G1 X13.351 Y22.467 E0.0112
G1 X13.950 Y22.361 E0.0437
G1 X14.075 Y22.352 E0.0090
G1 X14.652 Y22.369 E0.0415
G1 E-1.0000 F780
G1 Z0.500 F900
G1 X54.617 Y35.665 F3000
G1 Z0.300 F900
G1 E1.0300 F780
G1 X54.511 Y35.730 E0.0089 F270
G1 X54.206 Y35.888 E0.0247
G1 X54.644 Y35.939 E0.0317
G1 X54.786 Y35.968 E0.0104
G1 X55.443 Y36.160 E0.0492
G1 X55.633 Y36.242 E0.0149
G1 X56.111 Y36.518 E0.0397
G1 X56.231 Y36.602 E0.0106
G1 X56.638 Y36.942 E0.0381
G1 X56.750 Y37.055 E0.0115
G1 X57.131 Y37.517 E0.0430
G1 X57.228 Y37.662 E0.0125
G1 X57.474 Y38.126 E0.0378
G1 X57.534 Y38.267 E0.0110
G1 X57.707 Y38.810 E0.0410
G1 X57.747 Y39.022 E0.0155
G1 X57.781 Y39.591 E0.0409
G1 X57.777 Y39.739 E0.0106
G1 X57.722 Y40.221 E0.0349
G1 X57.687 Y40.384 E0.0119
G1 X57.548 Y40.825 E0.0333
G1 X57.481 Y40.982 E0.0123
G1 X57.240 Y41.419 E0.0358
G1 X57.153 Y41.548 E0.0112
G1 X56.840 Y41.931 E0.0356
G1 X56.743 Y42.024 E0.0096
G1 X56.825 Y42.027 E0.0058
G1 X57.000 Y42.051 E0.0127
G1 X57.477 Y42.167 E0.0352
G1 X57.627 Y42.218 E0.0114
G1 X58.099 Y42.431 E0.0372
G1 X58.277 Y42.539 E0.0150
G1 X58.710 Y42.879 E0.0396
G1 X58.833 Y42.997 E0.0122
G1 X59.211 Y43.439 E0.0418
G1 X59.336 Y43.633 E0.0166
G1 X59.595 Y44.185 E0.0438
G1 X59.643 Y44.312 E0.0098
G1 X59.739 Y44.643 E0.0248
G1 X59.765 Y44.770 E0.0093
G1 X59.828 Y45.254 E0.0350
G1 X59.834 Y45.417 E0.0117
G1 X59.805 Y45.907 E0.0353
G1 X59.781 Y46.065 E0.0115
G1 X59.672 Y46.499 E0.0321
G1 X59.602 Y46.686 E0.0144
G1 X59.434 Y47.011 E0.0262
G1 X59.344 Y47.149 E0.0119
G1 X59.002 Y47.581 E0.0396
G1 X58.866 Y47.718 E0.0139
G1 X58.514 Y48.000 E0.0324
G1 X58.379 Y48.089 E0.0116
G1 X57.983 Y48.300 E0.0323
G1 X57.814 Y48.368 E0.0130
G1 X57.384 Y48.491 E0.0321
G1 X57.235 Y48.519 E0.0109
G1 X56.753 Y48.568 E0.0348
G1 X56.609 Y48.571 E0.0103
G1 X56.121 Y48.539 E0.0351
G1 X56.006 Y48.523 E0.0084
G1 X53.912 Y48.097 E0.1535
G1 X53.682 Y48.076 E0.0166
G1 X53.587 Y48.097 E0.0070
G1 X52.676 Y48.486 E0.0711
G1 X52.569 Y48.521 E0.0081
G1 X51.891 Y50.566 E0.1548
G1 X51.878 Y50.604 E0.0029
G1 X50.519 Y54.138 E0.2720
G1 X50.502 Y54.180 E0.0032
G1 X48.923 Y57.728 E0.2790
G1 X48.900 Y57.775 E0.0038
G1 X48.344 Y58.845 E0.0867
G1 X47.900 Y59.806 E0.0760
G1 X47.874 Y59.858 E0.0042
G1 X47.311 Y60.889 E0.0843
G1 X47.293 Y60.920 E0.0026
G1 X46.778 Y61.773 E0.0716
G1 X46.751 Y61.816 E0.0036
G1 X45.926 Y63.018 E0.1047
G1 X45.648 Y63.509 E0.0405
G1 X45.197 Y64.532 E0.0804
G1 X44.986 Y65.131 E0.0456
G1 X44.945 Y65.227 E0.0075
G1 X44.574 Y65.976 E0.0600
G1 X44.496 Y66.104 E0.0108
G1 X43.998 Y66.781 E0.0604
G1 X43.828 Y66.955 E0.0174
G1 X43.472 Y67.228 E0.0322
G1 X43.385 Y67.286 E0.0075
G1 X43.067 Y67.474 E0.0265
G1 X42.947 Y67.532 E0.0096
G1 X42.335 Y67.775 E0.0473
G1 X42.065 Y67.835 E0.0199
G1 X41.380 Y67.873 E0.0493
G1 X40.999 Y67.808 E0.0277
G1 X40.770 Y67.714 E0.0178
G1 X40.664 Y67.699 E0.0077
G1 X40.282 Y67.547 E0.0295
G1 X39.546 Y67.024 E0.0648
G1 X39.370 Y66.857 E0.0175
G1 X39.144 Y66.573 E0.0261
G1 X39.025 Y66.372 E0.0168
G1 X38.742 Y65.703 E0.0522
G1 X38.720 Y65.441 E0.0189
G1 X38.438 Y65.582 E0.0226
G1 X38.288 Y65.640 E0.0116
G1 X37.639 Y65.824 E0.0485
G1 X37.083 Y65.799 E0.0399
G1 X37.042 Y65.783 E0.0031
G1 X36.437 Y65.967 E0.0455
G1 X36.216 Y66.004 E0.0161
G1 X35.165 Y66.040 E0.0755
G1 X35.106 Y66.040 E0.0043
G1 X34.045 Y66.004 E0.0762
G1 X33.824 Y65.967 E0.0161
G1 X33.218 Y65.783 E0.0455
G1 X33.178 Y65.799 E0.0031
G1 X32.622 Y65.824 E0.0399
G1 X31.973 Y65.640 E0.0485
G1 X31.823 Y65.582 E0.0116
G1 X31.542 Y65.441 E0.0226
G1 X31.499 Y65.796 E0.0256
G1 X31.050 Y66.673 E0.0708
G1 X30.754 Y67.004 E0.0319
G1 X30.015 Y67.493 E0.0637
G1 X29.847 Y67.580 E0.0136
G1 X29.220 Y67.820 E0.0482
G1 X28.840 Y67.875 E0.0276
G1 X28.172 Y67.822 E0.0482
G1 X27.928 Y67.766 E0.0180
G1 X27.325 Y67.532 E0.0465
G1 X27.202 Y67.473 E0.0098
G1 X26.891 Y67.292 E0.0258
G1 X26.811 Y67.239 E0.0069
G1 X26.453 Y66.972 E0.0321
G1 X26.282 Y66.803 E0.0173
G1 X25.862 Y66.252 E0.0498
G1 X25.791 Y66.144 E0.0093
G1 X25.433 Y65.490 E0.0535
G1 X25.382 Y65.378 E0.0088
G1 X25.071 Y64.548 E0.0637
G1 X24.612 Y63.509 E0.0816
G1 X24.335 Y63.018 E0.0405
G1 X23.510 Y61.816 E0.1047
G1 X23.483 Y61.773 E0.0036
G1 X22.968 Y60.920 E0.0716
G1 X22.950 Y60.889 E0.0026
G1 X22.387 Y59.858 E0.0843
G1 X22.361 Y59.806 E0.0042
G1 X21.917 Y58.845 E0.0760
G1 X21.360 Y57.775 E0.0867
G1 X21.338 Y57.728 E0.0038
G1 X19.759 Y54.180 E0.2790
G1 X19.742 Y54.138 E0.0032
G1 X18.383 Y50.603 E0.2721
G1 X18.368 Y50.562 E0.0031
G1 X17.697 Y48.511 E0.1551
G1 X17.387 Y48.409 E0.0234
G1 X17.259 Y48.355 E0.0099
