; G-Code generated by Simplify3D(R) Version 4.1.2
; Feb 2, 2022 at 4:37:48 PM
; Settings Summary
;   processName,Process1
;   applyToModels,treefrog_45_cut
;   profileName,ANPL 1.0.0 E1 S3D
;   profileVersion,2021-09-22 11:46:33
;   baseProfile,Default
;   printMaterial,
;   printQuality,
;   printExtruders,
;   extruderName,Extruder 1
;   extruderToolheadNumber,0
;   extruderDiameter,0.4
;   extruderAutoWidth,0
;   extruderWidth,0.42
;   extrusionMultiplier,0.95
;   extruderUseRetract,1
;   extruderRetractionDistance,0.3
;   extruderExtraRestartDistance,0.03
;   extruderRetractionZLift,0.1
;   extruderRetractionSpeed,1200
;   extruderUseCoasting,0
;   extruderCoastingDistance,0.5
;   extruderUseWipe,0
;   extruderWipeDistance,0.5
;   primaryExtruder,0
;   layerHeight,0.2
;   topSolidLayers,4
;   bottomSolidLayers,4
;   perimeterOutlines,2
;   printPerimetersInsideOut,1
;   startPointOption,3
;   startPointOriginX,100
;   startPointOriginY,0
;   sequentialIslands,1
;   spiralVaseMode,0
;   firstLayerHeightPercentage,200
;   firstLayerWidthPercentage,150
;   firstLayerUnderspeed,0.5
;   useRaft,0
;   raftExtruder,0
;   raftTopLayers,2
;   raftBaseLayers,1
;   raftOffset,4
;   raftSeparationDistance,0.08
;   raftTopInfill,100
;   aboveRaftSpeedMultiplier,0.3
;   useSkirt,1
;   skirtExtruder,0
;   skirtLayers,1
;   skirtOutlines,1
;   skirtOffset,1
;   usePrimePillar,0
;   primePillarExtruder,999
;   primePillarWidth,12
;   primePillarLocation,7
;   primePillarSpeedMultiplier,1
;   useOozeShield,0
;   oozeShieldExtruder,999
;   oozeShieldOffset,2
;   oozeShieldOutlines,1
;   oozeShieldSidewallShape,1
;   oozeShieldSidewallAngle,30
;   oozeShieldSpeedMultiplier,1
;   infillExtruder,0
;   internalInfillPattern,Rectilinear
;   externalInfillPattern,Rectilinear
;   infillPercentage,50
;   outlineOverlapPercentage,25
;   infillExtrusionWidthPercentage,100
;   minInfillLength,2
;   infillLayerInterval,1
;   internalInfillAngles,45,0,-45,90
;   overlapInternalInfillAngles,0
;   externalInfillAngles,45,-45
;   generateSupport,1
;   supportExtruder,0
;   supportInfillPercentage,15
;   supportExtraInflation,0.4
;   supportBaseLayers,1
;   denseSupportExtruder,0
;   denseSupportLayers,2
;   denseSupportInfillPercentage,90
;   supportLayerInterval,1
;   supportHorizontalPartOffset,0.4
;   supportUpperSeparationLayers,1
;   supportLowerSeparationLayers,1
;   supportType,0
;   supportGridSpacing,2
;   maxOverhangAngle,55
;   supportAngles,45,-45
;   temperatureName,Extruder 1
;   temperatureNumber,0
;   temperatureSetpointCount,1
;   temperatureSetpointLayers,1
;   temperatureSetpointTemperatures,215
;   temperatureStabilizeAtStartup,1
;   temperatureHeatedBed,0
;   fanLayers,1
;   fanSpeeds,25
;   blipFanToFullPower,0
;   adjustSpeedForCooling,1
;   minSpeedLayerTime,10
;   minCoolingSpeedSlowdown,30
;   increaseFanForCooling,1
;   minFanLayerTime,5
;   maxCoolingFanSpeed,100
;   increaseFanForBridging,1
;   bridgingFanSpeed,50
;   use5D,1
;   relativeEdistances,1
;   allowEaxisZeroing,1
;   independentExtruderAxes,0
;   includeM10123,0
;   stickySupport,1
;   applyToolheadOffsets,0
;   gcodeXoffset,0
;   gcodeYoffset,0
;   gcodeZoffset,0
;   overrideMachineDefinition,1
;   machineTypeOverride,0
;   strokeXoverride,250
;   strokeYoverride,155
;   strokeZoverride,200
;   originOffsetXoverride,0
;   originOffsetYoverride,0
;   originOffsetZoverride,0
;   homeXdirOverride,-1
;   homeYdirOverride,-1
;   homeZdirOverride,1
;   flipXoverride,1
;   flipYoverride,-1
;   flipZoverride,1
;   toolheadOffsets,0,0|0,0|0,0|0,0|0,0|0,0
;   overrideFirmwareConfiguration,0
;   firmwareTypeOverride,RepRap (Marlin/Repetier/Sprinter)
;   GPXconfigOverride,r2
;   baudRateOverride,250000
;   overridePrinterModels,0
;   printerModelsOverride
;   startingGcode,M83 ; relative extrusion mode,,;Pressure advances,M572 D0 S0.06                      ;Pressure advance enabled,M400 ; Finish all current moves and for pressure advances.,,,;Wipe nozzle before printing,G1 Z10 F1200			; Go to wipe position,G1 X20 Y165 F6000 		; Go to wipe position,G1 Z0.2 F1200			; Go to wipe height,G91			         ; relative movement for wipe extrusion,G1 E10.0 F300		         ; Extrude 10mm for wipe,M400			         ; wait for moves to finishng,G90			         ; world coordinate position,G92 E0			         ; zero extruder,G4 S1			         ; wait for wipe to drop,G1 Y140.0 E1 F900	         ; Move on bed wipe the nozzle,		                 ;MHI3D CODE END
;   layerChangeGcode,
;   retractionGcode,
;   toolChangeGcode,
;   endingGcode,G28 Z0	;Home Z,G91	;Relative movement for wipe extrusion,G1 E-2.0 F120	;Extrude 10mm for wipe,M400	; wait for moves to finishng,G90	; world coordinate position,G92 E0	; zero extruder,,G28	;Home,M104 S0	;Set Extruder Temperature,M140 S0	;Set Bed Temperature (Fast) or Configure Bed Heater,G90	;Set to Absolute Positioning,M18 X Z E0	;Disable XZE stepper motors,G1 Y145 F3000	;Move,G92 E0	;Set position,M107	;Fan off,M18 Y	;Disable Y stepper motor
;   exportFileFormat,gcode
;   celebration,0
;   celebrationSong,Random Song
;   postProcessing,
;   defaultSpeed,2100
;   outlineUnderspeed,1
;   solidInfillUnderspeed,1
;   supportUnderspeed,1
;   rapidXYspeed,3000
;   rapidZspeed,2100
;   minBridgingArea,15
;   bridgingExtraInflation,1
;   bridgingExtrusionMultiplier,1
;   bridgingSpeedMultiplier,0.5
;   useFixedBridgingAngle,0
;   fixedBridgingAngle,0
;   applyBridgingToPerimeters,1
;   filamentDiameters,1.75|1.75|1.75|1.75|1.75|1.75
;   filamentPricesPerKg,186|46|46|46|46|46
;   filamentDensities,1.25|1.25|1.25|1.25|1.25|1.25
;   useMinPrintHeight,0
;   minPrintHeight,0
;   useMaxPrintHeight,0
;   maxPrintHeight,0
;   useDiaphragm,0
;   diaphragmLayerInterval,20
;   robustSlicing,1
;   mergeAllIntoSolid,0
;   onlyRetractWhenCrossingOutline,1
;   retractBetweenLayers,0
;   useRetractionMinTravel,1
;   retractionMinTravel,2
;   retractWhileWiping,0
;   onlyWipeOutlines,0
;   avoidCrossingOutline,0
;   maxMovementDetourFactor,3
;   toolChangeRetractionDistance,20
;   toolChangeExtraRestartDistance,0
;   toolChangeRetractionSpeed,600
;   externalThinWallType,0
;   internalThinWallType,1
;   thinWallAllowedOverlapPercentage,10
;   singleExtrusionMinLength,5
;   singleExtrusionMinPrintingWidthPercentage,70
;   singleExtrusionMaxPrintingWidthPercentage,130
;   singleExtrusionEndpointExtension,0.1
;   horizontalSizeCompensation,0
G90
M83
M106 S64
M104 S215 T0
M109 S215 T0
M83 ; relative extrusion mode
;Pressure advances
M572 D0 S0.06                      ;Pressure advance enabled
M400 ; Finish all current moves and for pressure advances.
;Wipe nozzle before printing
G1 Z10 F1200			; Go to wipe position
G1 X20 Y165 F6000 		; Go to wipe position
G1 Z0.2 F1200			; Go to wipe height
G91			         ; relative movement for wipe extrusion
G1 E10.0 F300		         ; Extrude 10mm for wipe
M400			         ; wait for moves to finishng
G90			         ; world coordinate position
G92 E0			         ; zero extruder
G4 S1			         ; wait for wipe to drop
G1 Y140.0 E1 F900	         ; Move on bed wipe the nozzle
		                 ;MHI3D CODE END
; process Process1
; layer 1, Z = 0.400
T0
G1 E-0.3000 F1200
; feature skirt
; tool H0.400 W0.630
G1 Z0.400 F2100
G1 X57.062 Y28.548 F3000
G1 E0.3300 F1200
G1 X57.309 Y29.042 E0.0550 F1050
G1 X57.355 Y29.160 E0.0127
G1 X57.472 Y29.584 E0.0438
G1 X57.494 Y29.713 E0.0130
G1 X57.539 Y30.319 E0.0605
G1 X57.531 Y30.476 E0.0156
G1 X57.447 Y30.977 E0.0506
G1 X57.405 Y31.124 E0.0152
G1 X57.220 Y31.565 E0.0476
G1 X57.161 Y31.675 E0.0125
G1 X56.894 Y32.075 E0.0478
G1 X56.783 Y32.203 E0.0168
G1 X56.305 Y32.627 E0.0636
G1 X56.208 Y32.698 E0.0121
G1 X55.647 Y33.036 E0.0651
G1 X55.624 Y33.055 E0.0030
G1 X55.565 Y33.125 E0.0092
G1 X55.440 Y33.321 E0.0231
G1 X55.058 Y34.138 E0.0898
G1 X55.181 Y34.100 E0.0128
G1 X56.022 Y33.614 E0.0967
G1 X56.130 Y33.564 E0.0118
G1 X56.702 Y33.359 E0.0604
G1 X56.863 Y33.323 E0.0165
G1 X57.381 Y33.276 E0.0517
G1 X57.566 Y33.285 E0.0185
G1 X58.102 Y33.388 E0.0543
G1 X58.259 Y33.439 E0.0164
G1 X58.774 Y33.682 E0.0567
G1 X58.919 Y33.775 E0.0173
G1 X59.376 Y34.163 E0.0596
G1 X59.484 Y34.280 E0.0158
G1 X59.832 Y34.760 E0.0591
G1 X59.901 Y34.883 E0.0140
G1 X60.138 Y35.424 E0.0588
G1 X60.182 Y35.565 E0.0146
G1 X60.292 Y36.141 E0.0584
G1 X60.302 Y36.309 E0.0168
G1 X60.264 Y36.875 E0.0565
G1 X60.239 Y37.018 E0.0144
G1 X60.079 Y37.558 E0.0560
G1 X60.001 Y37.730 E0.0188
G1 X59.712 Y38.177 E0.0530
G1 X59.624 Y38.285 E0.0139
G1 X59.276 Y38.633 E0.0490
G1 X59.167 Y38.721 E0.0139
G1 X58.775 Y38.974 E0.0465
G1 X58.659 Y39.033 E0.0130
G1 X58.231 Y39.202 E0.0458
G1 X58.113 Y39.236 E0.0122
G1 X57.686 Y39.317 E0.0432
G1 X57.577 Y39.328 E0.0109
G1 X57.128 Y39.337 E0.0446
G1 X56.990 Y39.326 E0.0139
G1 X56.555 Y39.241 E0.0441
G1 X56.439 Y39.208 E0.0120
G1 X56.038 Y39.050 E0.0428
G1 X55.982 Y39.025 E0.0061
G1 X55.480 Y38.771 E0.0560
G1 X55.242 Y38.694 E0.0249
G1 X55.197 Y38.689 E0.0045
G1 X54.707 Y38.688 E0.0488
G1 X54.379 Y38.734 E0.0330
G1 X54.150 Y38.886 E0.0274
G1 X53.742 Y39.251 E0.0545
G1 X53.684 Y39.298 E0.0074
G1 X52.572 Y40.088 E0.1358
G1 X52.470 Y40.147 E0.0117
G1 X51.667 Y40.523 E0.0882
G1 X51.534 Y40.569 E0.0141
G1 X50.919 Y40.709 E0.0628
G1 X50.335 Y41.063 E0.0680
G1 X50.307 Y41.074 E0.0030
G1 X50.307 Y41.669 E0.0592
G1 X50.420 Y41.580 E0.0144
G1 X50.600 Y41.469 E0.0210
G1 X50.608 Y41.464 E0.0009
G1 X50.893 Y41.294 E0.0330
G1 X51.012 Y41.239 E0.0132
G1 X51.540 Y41.054 E0.0556
G1 X51.706 Y41.019 E0.0169
G1 X52.271 Y40.974 E0.0564
G1 X52.400 Y40.976 E0.0128
G1 X52.916 Y41.037 E0.0517
G1 X53.044 Y41.065 E0.0130
G1 X53.569 Y41.237 E0.0550
G1 X53.692 Y41.291 E0.0134
G1 X54.129 Y41.542 E0.0501
G1 X54.223 Y41.607 E0.0113
G1 X54.617 Y41.934 E0.0510
G1 X54.708 Y42.026 E0.0128
G1 X55.059 Y42.459 E0.0555
G1 X55.128 Y42.563 E0.0124
G1 X55.354 Y42.985 E0.0477
G1 X55.401 Y43.093 E0.0117
G1 X55.564 Y43.599 E0.0529
G1 X55.595 Y43.763 E0.0166
G1 X55.627 Y44.285 E0.0521
G1 X55.624 Y44.395 E0.0110
G1 X55.575 Y44.854 E0.0459
G1 X55.548 Y44.982 E0.0130
G1 X55.418 Y45.394 E0.0430
G1 X55.366 Y45.514 E0.0131
G1 X55.145 Y45.913 E0.0453
G1 X55.077 Y46.013 E0.0121
G1 X54.802 Y46.346 E0.0429
G1 X54.727 Y46.422 E0.0107
G1 X54.418 Y46.693 E0.0409
G1 X54.373 Y46.728 E0.0057
G1 X53.628 Y47.273 E0.0919
G1 X53.573 Y47.330 E0.0079
G1 X53.931 Y47.199 E0.0379
G1 X54.059 Y47.166 E0.0132
G1 X54.468 Y47.103 E0.0412
G1 X54.589 Y47.096 E0.0121
G1 X55.018 Y47.110 E0.0427
G1 X55.148 Y47.128 E0.0131
G1 X55.588 Y47.232 E0.0450
G1 X55.709 Y47.273 E0.0126
G1 X56.159 Y47.477 E0.0493
G1 X56.296 Y47.560 E0.0159
G1 X56.693 Y47.874 E0.0504
G1 X56.787 Y47.965 E0.0130
G1 X57.121 Y48.359 E0.0514
G1 X57.209 Y48.492 E0.0159
G1 X57.438 Y48.951 E0.0511
G1 X57.481 Y49.062 E0.0118
G1 X57.590 Y49.441 E0.0393
G1 X57.610 Y49.532 E0.0092
G1 X57.673 Y49.978 E0.0449
G1 X57.678 Y50.114 E0.0136
G1 X57.647 Y50.567 E0.0451
G1 X57.629 Y50.684 E0.0118
G1 X57.525 Y51.092 E0.0419
G1 X57.461 Y51.254 E0.0173
G1 X57.254 Y51.623 E0.0421
G1 X57.184 Y51.723 E0.0121
G1 X56.918 Y52.040 E0.0412
G1 X56.823 Y52.133 E0.0133
G1 X56.507 Y52.384 E0.0401
G1 X56.407 Y52.449 E0.0119
G1 X56.050 Y52.639 E0.0402
G1 X55.924 Y52.690 E0.0135
G1 X55.529 Y52.805 E0.0409
G1 X55.412 Y52.828 E0.0119
G1 X54.963 Y52.873 E0.0449
G1 X54.856 Y52.875 E0.0106
G1 X54.398 Y52.847 E0.0457
G1 X54.306 Y52.835 E0.0092
G1 X52.256 Y52.414 E0.2082
G1 X51.903 Y52.382 E0.0353
G1 X51.701 Y52.426 E0.0206
G1 X51.030 Y52.721 E0.0729
G1 X50.972 Y52.744 E0.0063
G1 X50.505 Y52.898 E0.0489
G1 X50.326 Y53.402 E0.0532
G1 X49.737 Y55.283 E0.1962
G1 X49.724 Y55.321 E0.0040
G1 X48.433 Y58.702 E0.3602
G1 X48.420 Y58.734 E0.0035
G1 X46.860 Y62.247 E0.3826
G1 X46.844 Y62.282 E0.0038
G1 X46.178 Y63.571 E0.1444
G1 X45.830 Y64.327 E0.0828
G1 X45.810 Y64.366 E0.0044
G1 X45.238 Y65.412 E0.1186
G1 X45.222 Y65.439 E0.0032
G1 X44.721 Y66.260 E0.0958
G1 X44.700 Y66.293 E0.0039
G1 X43.858 Y67.503 E0.1467
G1 X43.579 Y68.005 E0.0571
G1 X43.099 Y69.082 E0.1174
G1 X42.925 Y69.585 E0.0530
G1 X42.895 Y69.657 E0.0078
G1 X42.479 Y70.517 E0.0951
G1 X42.411 Y70.628 E0.0129
G1 X41.915 Y71.282 E0.0817
G1 X41.791 Y71.407 E0.0176
G1 X41.535 Y71.603 E0.0321
G1 X41.468 Y71.648 E0.0080
G1 X41.123 Y71.852 E0.0399
G1 X41.035 Y71.895 E0.0097
G1 X40.482 Y72.119 E0.0595
G1 X40.283 Y72.166 E0.0203
G1 X39.658 Y72.212 E0.0624
G1 X39.354 Y72.164 E0.0306
G1 X39.171 Y72.088 E0.0197
G1 X38.984 Y72.062 E0.0189
G1 X38.684 Y71.939 E0.0322
G1 X38.038 Y71.467 E0.0796
G1 X37.911 Y71.345 E0.0176
G1 X37.674 Y71.046 E0.0380
G1 X37.575 Y70.874 E0.0197
G1 X37.341 Y70.270 E0.0645
G1 X37.313 Y69.872 E0.0397
G1 X37.330 Y69.798 E0.0075
G1 X37.291 Y69.617 E0.0184
G1 X37.289 Y69.545 E0.0072
G1 X36.491 Y69.923 E0.0879
G1 X36.407 Y69.956 E0.0090
G1 X35.873 Y70.124 E0.0558
G1 X35.410 Y70.104 E0.0462
G1 X35.288 Y70.054 E0.0131
G1 X34.821 Y70.228 E0.0496
G1 X34.687 Y70.262 E0.0138
G1 X34.315 Y70.317 E0.0374
G1 X34.238 Y70.324 E0.0077
G1 X33.395 Y70.347 E0.0839
G1 X33.359 Y70.347 E0.0036
G1 X32.507 Y70.324 E0.0849
G1 X32.429 Y70.317 E0.0078
G1 X32.057 Y70.262 E0.0374
G1 X31.923 Y70.228 E0.0138
G1 X31.456 Y70.054 E0.0496
G1 X31.334 Y70.104 E0.0131
G1 X30.871 Y70.124 E0.0462
G1 X30.337 Y69.956 E0.0558
G1 X30.253 Y69.923 E0.0090
G1 X29.431 Y69.534 E0.0905
G1 X29.422 Y69.781 E0.0246
G1 X29.417 Y69.811 E0.0030
G1 X29.434 Y69.885 E0.0075
G1 X29.396 Y70.308 E0.0423
G1 X29.147 Y70.883 E0.0624
G1 X29.085 Y70.995 E0.0127
G1 X28.870 Y71.306 E0.0377
G1 X28.693 Y71.481 E0.0248
G1 X28.067 Y71.900 E0.0750
G1 X27.914 Y71.976 E0.0170
G1 X27.325 Y72.179 E0.0620
G1 X27.044 Y72.212 E0.0281
G1 X26.445 Y72.154 E0.0599
G1 X26.267 Y72.111 E0.0182
G1 X25.706 Y71.890 E0.0600
G1 X25.590 Y71.831 E0.0129
G1 X25.015 Y71.461 E0.0680
G1 X24.847 Y71.306 E0.0228
G1 X24.349 Y70.652 E0.0818
G1 X24.281 Y70.542 E0.0129
G1 X23.850 Y69.660 E0.0977
G1 X23.819 Y69.586 E0.0080
G1 X23.645 Y69.082 E0.0531
G1 X23.165 Y68.005 E0.1174
G1 X22.886 Y67.503 E0.0571
G1 X22.044 Y66.293 E0.1467
G1 X22.023 Y66.260 E0.0039
G1 X21.522 Y65.439 E0.0958
G1 X21.506 Y65.412 E0.0032
G1 X20.934 Y64.366 E0.1186
G1 X20.914 Y64.327 E0.0044
G1 X20.566 Y63.571 E0.0828
G1 X19.900 Y62.282 E0.1444
G1 X19.884 Y62.247 E0.0038
G1 X18.324 Y58.734 E0.3826
G1 X18.311 Y58.702 E0.0035
G1 X17.021 Y55.323 E0.3600
G1 X17.009 Y55.289 E0.0035
G1 X16.242 Y52.899 E0.2499
G1 X15.771 Y52.743 E0.0493
G1 X15.708 Y52.719 E0.0066
G1 X15.043 Y52.422 E0.0726
G1 X14.847 Y52.381 E0.0199
G1 X14.490 Y52.413 E0.0356
G1 X12.449 Y52.834 E0.2074
G1 X12.357 Y52.847 E0.0092
G1 X11.898 Y52.875 E0.0458
G1 X11.789 Y52.873 E0.0109
G1 X11.350 Y52.828 E0.0439
G1 X11.238 Y52.806 E0.0113
G1 X10.836 Y52.692 E0.0416
G1 X10.708 Y52.641 E0.0138
G1 X10.348 Y52.451 E0.0405
G1 X10.251 Y52.388 E0.0115
G1 X9.927 Y52.136 E0.0408
G1 X9.820 Y52.031 E0.0150
G1 X9.553 Y51.701 E0.0422
G1 X9.481 Y51.591 E0.0131
G1 X9.296 Y51.235 E0.0399
G1 X9.247 Y51.115 E0.0129
G1 X9.133 Y50.719 E0.0410
G1 X9.108 Y50.582 E0.0139
G1 X9.076 Y50.126 E0.0454
G1 X9.078 Y50.005 E0.0121
G1 X9.130 Y49.555 E0.0450
G1 X9.152 Y49.446 E0.0111
G1 X9.271 Y49.037 E0.0423
G1 X9.310 Y48.936 E0.0108
G1 X9.517 Y48.507 E0.0475
G1 X9.607 Y48.368 E0.0164
G1 X9.944 Y47.968 E0.0521
G1 X10.043 Y47.872 E0.0137
G1 X10.450 Y47.555 E0.0513
G1 X10.580 Y47.476 E0.0151
G1 X11.024 Y47.273 E0.0486
G1 X11.152 Y47.229 E0.0135
G1 X11.601 Y47.126 E0.0458
G1 X11.726 Y47.110 E0.0125
G1 X12.151 Y47.096 E0.0423
G1 X12.277 Y47.104 E0.0126
G1 X12.665 Y47.166 E0.0391
G1 X12.757 Y47.187 E0.0094
G1 X13.109 Y47.297 E0.0367
G1 X13.146 Y47.310 E0.0039
G1 X13.155 Y47.313 E0.0009
G1 X13.115 Y47.271 E0.0058
G1 X12.376 Y46.728 E0.0913
G1 X12.339 Y46.699 E0.0048
G1 X12.023 Y46.428 E0.0414
G1 X11.940 Y46.344 E0.0118
G1 X11.664 Y46.006 E0.0435
G1 X11.595 Y45.902 E0.0124
G1 X11.384 Y45.511 E0.0442
G1 X11.339 Y45.409 E0.0110
G1 X11.204 Y45.011 E0.0419
G1 X11.176 Y44.889 E0.0125
G1 X11.111 Y44.416 E0.0475
G1 X11.107 Y44.270 E0.0145
G1 X11.152 Y43.746 E0.0523
G1 X11.177 Y43.614 E0.0134
G1 X11.327 Y43.108 E0.0526
G1 X11.386 Y42.970 E0.0149
G1 X11.652 Y42.502 E0.0536
G1 X11.720 Y42.403 E0.0119
G1 X12.048 Y42.014 E0.0507
