; G-Code generated by Simplify3D(R) Version 4.1.2
; Nov 9, 2021 at 2:38:04 PM
; Settings Summary
;   processName,Process1
;   applyToModels,treefrog_45_cut
;   profileName,FF60A 1.0.0 E1 S3D
;   profileVersion,2021-11-09 13:26:40
;   baseProfile,Default
;   printMaterial,TPU
;   printQuality,Medium
;   printExtruders,
;   extruderName,Extruder 1
;   extruderToolheadNumber,0
;   extruderDiameter,0.4
;   extruderAutoWidth,1
;   extruderWidth,0.48
;   extrusionMultiplier,1.3
;   extruderUseRetract,1
;   extruderRetractionDistance,3
;   extruderExtraRestartDistance,0
;   extruderRetractionZLift,0.4
;   extruderRetractionSpeed,1200
;   extruderUseCoasting,0
;   extruderCoastingDistance,0.5
;   extruderUseWipe,0
;   extruderWipeDistance,2
;   primaryExtruder,0
;   layerHeight,0.2
;   topSolidLayers,5
;   bottomSolidLayers,5
;   perimeterOutlines,1
;   printPerimetersInsideOut,1
;   startPointOption,2
;   startPointOriginX,0
;   startPointOriginY,0
;   sequentialIslands,1
;   spiralVaseMode,0
;   firstLayerHeightPercentage,100
;   firstLayerWidthPercentage,50
;   firstLayerUnderspeed,0.5
;   useRaft,0
;   raftExtruder,0
;   raftTopLayers,3
;   raftBaseLayers,3
;   raftOffset,3
;   raftSeparationDistance,0.14
;   raftTopInfill,100
;   aboveRaftSpeedMultiplier,0.3
;   useSkirt,1
;   skirtExtruder,0
;   skirtLayers,4
;   skirtOutlines,2
;   skirtOffset,2
;   usePrimePillar,0
;   primePillarExtruder,999
;   primePillarWidth,12
;   primePillarLocation,7
;   primePillarSpeedMultiplier,1
;   useOozeShield,0
;   oozeShieldExtruder,999
;   oozeShieldOffset,2
;   oozeShieldOutlines,1
;   oozeShieldSidewallShape,1
;   oozeShieldSidewallAngle,30
;   oozeShieldSpeedMultiplier,1
;   infillExtruder,0
;   internalInfillPattern,Rectilinear
;   externalInfillPattern,Rectilinear
;   infillPercentage,50
;   outlineOverlapPercentage,15
;   infillExtrusionWidthPercentage,100
;   minInfillLength,5
;   infillLayerInterval,1
;   internalInfillAngles,45,-45
;   overlapInternalInfillAngles,0
;   externalInfillAngles,45,-45
;   generateSupport,1
;   supportExtruder,0
;   supportInfillPercentage,25
;   supportExtraInflation,0.4
;   supportBaseLayers,2
;   denseSupportExtruder,0
;   denseSupportLayers,2
;   denseSupportInfillPercentage,90
;   supportLayerInterval,1
;   supportHorizontalPartOffset,0.6
;   supportUpperSeparationLayers,2
;   supportLowerSeparationLayers,1
;   supportType,1
;   supportGridSpacing,3
;   maxOverhangAngle,45
;   supportAngles,0
;   temperatureName,Extruder 1
;   temperatureNumber,0
;   temperatureSetpointCount,1
;   temperatureSetpointLayers,1
;   temperatureSetpointTemperatures,240
;   temperatureStabilizeAtStartup,1
;   temperatureHeatedBed,0
;   fanLayers,1
;   fanSpeeds,100
;   blipFanToFullPower,0
;   adjustSpeedForCooling,1
;   minSpeedLayerTime,10
;   minCoolingSpeedSlowdown,50
;   increaseFanForCooling,0
;   minFanLayerTime,45
;   maxCoolingFanSpeed,100
;   increaseFanForBridging,0
;   bridgingFanSpeed,100
;   use5D,1
;   relativeEdistances,1
;   allowEaxisZeroing,1
;   independentExtruderAxes,0
;   includeM10123,0
;   stickySupport,1
;   applyToolheadOffsets,0
;   gcodeXoffset,0
;   gcodeYoffset,0
;   gcodeZoffset,0
;   overrideMachineDefinition,1
;   machineTypeOverride,0
;   strokeXoverride,255
;   strokeYoverride,155
;   strokeZoverride,200
;   originOffsetXoverride,0
;   originOffsetYoverride,0
;   originOffsetZoverride,0
;   homeXdirOverride,-1
;   homeYdirOverride,-1
;   homeZdirOverride,-1
;   flipXoverride,1
;   flipYoverride,-1
;   flipZoverride,1
;   toolheadOffsets,0,0|0,0|0,0|0,0|0,0|0,0
;   overrideFirmwareConfiguration,0
;   firmwareTypeOverride,RepRap (Marlin/Repetier/Sprinter)
;   GPXconfigOverride,r2
;   baudRateOverride,250000
;   overridePrinterModels,0
;   printerModelsOverride
;   startingGcode,M83 ; relative extrusion mode,,M572 D0 S0.09                                                       ;Pressure advance enabled,M400 ; Finish all current moves and for pressure advances.,,		;Wipe nozzle before printing,G1 Z10 F1200			; Go to wipe position,G1 X5 Y150 F6000 		; Go to wipe position,G1 Z0.2 F1200			; Go to wipe height,G91			; relative movement for wipe extrusion,G1 E10.0 F300			; Extrude 10mm for wipe,M400			; wait for moves to finishn,G90			; world coordinate position,G92 E0			; zero extruder,G4 S1			; wait for wipe to drop,G1 Y140.0 E1 F900			; Move on bed wipe the nozzle,		;MHI3D CODE END
;   layerChangeGcode,
;   retractionGcode,
;   toolChangeGcode,
;   endingGcode,G28 Z0	;Home Z,G91	;Relative movement for wipe extrusion,G1 E-2.0 F120	;Extrude 10mm for wipe,M400	; wait for moves to finishng,G90	; world coordinate position,G92 E0	; zero extruder,,G28	;Home,M104 S0	;Set Extruder Temperature,M140 S0	;Set Bed Temperature (Fast) or Configure Bed Heater,G90	;Set to Absolute Positioning,M18 X Z E0	;Disable XZE stepper motors,G1 Y145 F3000	;Move,G92 E0	;Set position,M107	;Fan off,M18 Y	;Disable Y stepper motor
;   exportFileFormat,gcode
;   celebration,0
;   celebrationSong,Random Song
;   postProcessing,
;   defaultSpeed,600
;   outlineUnderspeed,1
;   solidInfillUnderspeed,1
;   supportUnderspeed,1
;   rapidXYspeed,3600
;   rapidZspeed,1200
;   minBridgingArea,50
;   bridgingExtraInflation,0
;   bridgingExtrusionMultiplier,1
;   bridgingSpeedMultiplier,1
;   useFixedBridgingAngle,0
;   fixedBridgingAngle,0
;   applyBridgingToPerimeters,0
;   filamentDiameters,1.75|1.75|1.75|1.75|1.75|1.75
;   filamentPricesPerKg,38|46|46|46|46|46
;   filamentDensities,1.25|1.25|1.25|1.25|1.25|1.25
;   useMinPrintHeight,0
;   minPrintHeight,0
;   useMaxPrintHeight,0
;   maxPrintHeight,4.9
;   useDiaphragm,0
;   diaphragmLayerInterval,20
;   robustSlicing,1
;   mergeAllIntoSolid,0
;   onlyRetractWhenCrossingOutline,1
;   retractBetweenLayers,1
;   useRetractionMinTravel,1
;   retractionMinTravel,3
;   retractWhileWiping,0
;   onlyWipeOutlines,0
;   avoidCrossingOutline,1
;   maxMovementDetourFactor,3
;   toolChangeRetractionDistance,12
;   toolChangeExtraRestartDistance,-0.5
;   toolChangeRetractionSpeed,600
;   externalThinWallType,1
;   internalThinWallType,1
;   thinWallAllowedOverlapPercentage,10
;   singleExtrusionMinLength,1
;   singleExtrusionMinPrintingWidthPercentage,80
;   singleExtrusionMaxPrintingWidthPercentage,150
;   singleExtrusionEndpointExtension,0.1
;   horizontalSizeCompensation,0
G90
M83
M106 S255
M104 S240 T0
M109 S240 T0
M83 ; relative extrusion mode
M572 D0 S0.09                                                       ;Pressure advance enabled
M400 ; Finish all current moves and for pressure advances.
		;Wipe nozzle before printing
G1 Z10 F1200			; Go to wipe position
G1 X5 Y150 F6000 		; Go to wipe position
G1 Z0.2 F1200			; Go to wipe height
G91			; relative movement for wipe extrusion
G1 E10.0 F300			; Extrude 10mm for wipe
M400			; wait for moves to finishn
G90			; world coordinate position
G92 E0			; zero extruder
G4 S1			; wait for wipe to drop
G1 Y140.0 E1 F900			; Move on bed wipe the nozzle
		;MHI3D CODE END
; process Process1
; layer 1, Z = 0.200
T0
G1 E-3.0000 F1200
; feature skirt
; tool H0.200 W0.240
G1 Z0.400 F1200
G1 X33.941 Y66.438 F3600
G1 Z0.200 F1200
G1 E3.0000 F1200
G1 X34.197 Y66.279 E0.0078 F300
G1 X34.887 Y65.963 E0.0197
G1 X35.171 Y65.874 E0.0077
G1 X35.899 Y65.744 E0.0192
G1 X36.145 Y65.726 E0.0064
G1 X36.351 Y65.732 E0.0054
G1 X36.810 Y65.739 E0.0119
G1 X37.053 Y65.768 E0.0064
G1 X37.705 Y65.916 E0.0174
G1 X37.935 Y65.993 E0.0063
G1 X38.542 Y66.270 E0.0173
G1 X38.782 Y66.416 E0.0073
G1 X39.330 Y66.845 E0.0181
G1 X39.537 Y67.054 E0.0076
G1 X39.938 Y67.574 E0.0171
G1 X40.066 Y67.781 E0.0063
G1 X40.192 Y68.040 E0.0075
G1 X40.290 Y68.225 E0.0054
G1 X40.381 Y68.447 E0.0062
G1 X40.507 Y68.876 E0.0116
G1 X40.653 Y68.753 E0.0049
G1 X40.891 Y68.598 E0.0074
G1 X41.649 Y68.224 E0.0219
G1 X41.969 Y68.120 E0.0087
G1 X42.825 Y67.970 E0.0225
G1 X43.131 Y67.957 E0.0080
G1 X44.018 Y68.034 E0.0231
G1 X44.379 Y68.124 E0.0097
G1 X45.202 Y68.473 E0.0232
G1 X45.488 Y68.645 E0.0087
G1 X46.177 Y69.206 E0.0230
G1 X46.435 Y69.499 E0.0101
G1 X46.634 Y69.819 E0.0098
G1 X46.859 Y70.157 E0.0106
G1 X46.992 Y70.424 E0.0077
G1 X47.255 Y71.178 E0.0207
G1 X47.320 Y71.510 E0.0088
G1 X47.357 Y72.260 E0.0195
G1 X47.352 Y72.364 E0.0027
G1 X67.096 Y72.364 E0.5122
G1 X67.090 Y72.260 E0.0027
G1 X67.128 Y71.510 E0.0195
G1 X67.192 Y71.178 E0.0088
G1 X67.456 Y70.424 E0.0207
G1 X67.588 Y70.157 E0.0077
G1 X67.813 Y69.819 E0.0105
G1 X68.013 Y69.499 E0.0098
G1 X68.271 Y69.206 E0.0101
G1 X68.959 Y68.645 E0.0230
G1 X69.245 Y68.473 E0.0087
G1 X70.068 Y68.124 E0.0232
G1 X70.429 Y68.034 E0.0096
G1 X71.315 Y67.957 E0.0231
G1 X71.622 Y67.970 E0.0080
G1 X72.477 Y68.119 E0.0225
G1 X72.796 Y68.223 E0.0087
G1 X73.554 Y68.596 E0.0219
G1 X73.791 Y68.750 E0.0073
G1 X73.940 Y68.875 E0.0050
G1 X74.066 Y68.447 E0.0116
G1 X74.157 Y68.225 E0.0062
G1 X74.256 Y68.039 E0.0054
G1 X74.381 Y67.781 E0.0074
G1 X74.509 Y67.575 E0.0063
G1 X74.911 Y67.053 E0.0171
G1 X75.119 Y66.844 E0.0077
G1 X75.671 Y66.412 E0.0182
G1 X75.917 Y66.264 E0.0074
G1 X76.529 Y65.990 E0.0174
G1 X76.747 Y65.917 E0.0059
G1 X77.387 Y65.769 E0.0171
G1 X77.635 Y65.739 E0.0065
G1 X78.113 Y65.732 E0.0124
G1 X78.303 Y65.726 E0.0049
G1 X78.550 Y65.744 E0.0064
G1 X79.274 Y65.875 E0.0191
G1 X79.554 Y65.962 E0.0076
G1 X80.246 Y66.276 E0.0197
G1 X80.506 Y66.438 E0.0079
G1 X80.722 Y66.614 E0.0072
G1 X81.054 Y66.881 E0.0110
G1 X81.226 Y67.050 E0.0062
G1 X81.666 Y67.582 E0.0179
G1 X81.802 Y67.787 E0.0064
G1 X81.893 Y67.961 E0.0051
G1 X82.095 Y68.324 E0.0108
G1 X82.199 Y68.576 E0.0071
G1 X82.375 Y69.194 E0.0167
G1 X82.418 Y69.451 E0.0068
G1 X82.451 Y70.056 E0.0157
G1 X82.442 Y70.288 E0.0060
G1 X82.376 Y70.754 E0.0122
G1 X82.351 Y70.862 E0.0029
G1 X82.333 Y70.973 E0.0029
G1 X82.262 Y71.225 E0.0068
G1 X82.169 Y71.454 E0.0064
G1 X82.119 Y71.612 E0.0043
G1 X81.988 Y71.890 E0.0080
G1 X81.875 Y72.066 E0.0054
G1 X81.856 Y72.097 E0.0009
G1 X82.187 Y72.158 E0.0087
G1 X82.474 Y72.250 E0.0078
G1 X83.118 Y72.551 E0.0184
G1 X83.382 Y72.721 E0.0082
G1 X83.939 Y73.193 E0.0189
G1 X84.129 Y73.397 E0.0072
G1 X84.552 Y73.977 E0.0186
G1 X84.684 Y74.206 E0.0069
G1 X84.965 Y74.860 E0.0185
G1 X85.043 Y75.114 E0.0069
G1 X85.083 Y75.333 E0.0058
G1 X85.174 Y75.821 E0.0129
G1 X85.191 Y76.129 E0.0080
G1 X85.155 Y76.597 E0.0122
G1 X85.142 Y76.794 E0.0051
G1 X85.138 Y76.816 E0.0006
G1 X85.124 Y76.893 E0.0020
G1 X85.096 Y77.047 E0.0041
G1 X85.094 Y77.055 E0.0002
G1 X84.904 Y77.709 E0.0177
G1 X84.766 Y78.013 E0.0087
G1 X84.412 Y78.570 E0.0171
G1 X84.250 Y78.773 E0.0067
G1 X83.821 Y79.201 E0.0157
G1 X83.621 Y79.361 E0.0066
G1 X83.403 Y79.500 E0.0067
G1 X83.128 Y79.676 E0.0085
G1 X82.912 Y79.785 E0.0063
G1 X82.397 Y79.982 E0.0143
G1 X82.208 Y80.036 E0.0051
G1 X81.689 Y80.140 E0.0137
G1 X81.465 Y80.163 E0.0058
G1 X81.152 Y80.166 E0.0081
G1 X80.998 Y80.172 E0.0040
G1 X80.932 Y80.167 E0.0017
G1 X80.914 Y80.167 E0.0005
G1 X80.855 Y80.162 E0.0015
G1 X80.750 Y80.155 E0.0027
G1 X80.722 Y80.150 E0.0007
G1 X80.689 Y80.147 E0.0009
G1 X80.468 Y80.106 E0.0058
G1 X80.171 Y80.055 E0.0078
G1 X80.028 Y80.011 E0.0039
G1 X79.992 Y80.001 E0.0009
G1 X79.973 Y79.994 E0.0005
G1 X79.887 Y79.967 E0.0023
G1 X79.826 Y79.940 E0.0017
G1 X79.564 Y79.844 E0.0073
G1 X79.401 Y79.770 E0.0046
G1 X79.218 Y79.669 E0.0054
G1 X78.609 Y79.741 E0.0159
G1 X78.041 Y80.156 E0.0183
G1 X78.482 Y80.403 E0.0131
G1 X78.634 Y80.503 E0.0047
G1 X79.118 Y80.882 E0.0160
G1 X79.289 Y81.046 E0.0061
G1 X79.702 Y81.530 E0.0165
G1 X79.829 Y81.710 E0.0057
G1 X80.146 Y82.263 E0.0165
G1 X80.246 Y82.490 E0.0064
G1 X80.443 Y83.104 E0.0167
G1 X80.493 Y83.342 E0.0063
G1 X80.558 Y83.965 E0.0163
G1 X80.559 Y84.086 E0.0031
G1 X80.560 Y84.185 E0.0026
G1 X80.559 Y84.195 E0.0002
G1 X80.559 Y84.208 E0.0004
G1 X80.552 Y84.274 E0.0017
G1 X80.508 Y84.805 E0.0138
G1 X80.445 Y85.099 E0.0078
G1 X80.339 Y85.399 E0.0083
G1 X80.278 Y85.596 E0.0053
G1 X80.194 Y85.795 E0.0056
G1 X80.034 Y86.098 E0.0089
G1 X80.434 Y86.280 E0.0114
G1 X80.658 Y86.413 E0.0067
G1 X81.163 Y86.795 E0.0164
G1 X81.350 Y86.971 E0.0067
G1 X81.769 Y87.462 E0.0167
G1 X81.774 Y87.470 E0.0003
G1 X81.791 Y87.490 E0.0007
G1 X81.945 Y87.719 E0.0071
G1 X82.224 Y88.260 E0.0158
G1 X82.308 Y88.470 E0.0059
G1 X82.456 Y88.975 E0.0137
G1 X82.490 Y89.130 E0.0041
G1 X82.571 Y89.662 E0.0140
G1 X82.582 Y89.913 E0.0065
G1 X82.547 Y90.467 E0.0144
G1 X82.546 Y90.484 E0.0004
G1 X82.528 Y90.591 E0.0028
G1 X82.513 Y90.685 E0.0025
G1 X82.508 Y90.703 E0.0005
G1 X82.498 Y90.762 E0.0016
G1 X82.467 Y90.866 E0.0028
G1 X82.365 Y91.268 E0.0108
G1 X82.196 Y91.644 E0.0107
G1 X82.077 Y91.819 E0.0055
G1 X81.906 Y92.110 E0.0087
G1 X81.764 Y92.303 E0.0062
G1 X81.699 Y92.374 E0.0025
G1 X81.687 Y92.393 E0.0006
G1 X81.457 Y92.644 E0.0088
G1 X81.445 Y92.654 E0.0004
G1 X81.323 Y92.769 E0.0043
G1 X80.935 Y93.083 E0.0129
G1 X80.729 Y93.216 E0.0064
G1 X80.271 Y93.450 E0.0133
G1 X80.062 Y93.532 E0.0058
G1 X79.564 Y93.676 E0.0134
G1 X79.350 Y93.717 E0.0056
G1 X79.300 Y93.722 E0.0013
G1 X78.815 Y93.779 E0.0127
G1 X78.594 Y93.785 E0.0057
G1 X78.033 Y93.746 E0.0146
G1 X77.877 Y93.725 E0.0041
G1 X76.281 Y93.397 E0.0423
G1 X76.066 Y93.369 E0.0056
G1 X75.974 Y93.369 E0.0024
G1 X75.421 Y93.586 E0.0154
G1 X75.038 Y95.252 E0.0443
G1 X75.027 Y95.299 E0.0013
G1 X74.805 Y96.110 E0.0218
G1 X74.779 Y96.192 E0.0022
G1 X73.892 Y98.701 E0.0690
G1 X73.874 Y98.749 E0.0013
G1 X73.144 Y100.561 E0.0507
G1 X73.117 Y100.623 E0.0018
G1 X72.205 Y102.559 E0.0555
G1 X72.183 Y102.601 E0.0012
G1 X71.134 Y104.614 E0.0589
G1 X71.116 Y104.647 E0.0010
G1 X70.530 Y105.688 E0.0310
G1 X70.506 Y105.728 E0.0012
G1 X69.994 Y106.561 E0.0254
G1 X69.943 Y106.636 E0.0024
G1 X68.994 Y107.942 E0.0419
G1 X68.798 Y108.262 E0.0097
G1 X68.501 Y108.818 E0.0163
G1 X67.816 Y110.371 E0.0440
G1 X67.762 Y110.478 E0.0031
G1 X67.318 Y111.257 E0.0233
G1 X67.177 Y111.455 E0.0063
G1 X66.550 Y112.166 E0.0246
G1 X66.326 Y112.363 E0.0078
G1 X65.676 Y112.803 E0.0203
G1 X65.460 Y112.919 E0.0064
G1 X64.802 Y113.187 E0.0184
G1 X64.541 Y113.260 E0.0070
G1 X63.717 Y113.391 E0.0216
G1 X63.306 Y113.385 E0.0107
G1 X62.412 Y113.214 E0.0236
G1 X62.027 Y113.067 E0.0107
G1 X61.102 Y112.515 E0.0280
G1 X60.645 Y112.027 E0.0174
G1 X60.410 Y111.564 E0.0135
G1 X60.304 Y111.430 E0.0044
G1 X60.074 Y110.945 E0.0139
G1 X59.709 Y110.994 E0.0096
G1 X59.485 Y110.962 E0.0059
G1 X59.363 Y110.967 E0.0032
G1 X59.240 Y111.017 E0.0034
G1 X59.099 Y111.065 E0.0039
G1 X58.477 Y111.233 E0.0167
G1 X58.305 Y111.265 E0.0045
G1 X57.365 Y111.374 E0.0245
G1 X57.096 Y111.374 E0.0070
G1 X56.145 Y111.266 E0.0248
G1 X55.971 Y111.233 E0.0046
G1 X55.348 Y111.065 E0.0167
G1 X55.207 Y111.017 E0.0039
G1 X55.084 Y110.967 E0.0034
G1 X54.962 Y110.962 E0.0032
G1 X54.738 Y110.994 E0.0059
G1 X54.351 Y110.942 E0.0101
G1 X54.312 Y111.057 E0.0031
G1 X54.200 Y111.296 E0.0068
G1 X53.705 Y112.105 E0.0246
G1 X53.326 Y112.489 E0.0140
G1 X52.475 Y113.029 E0.0261
G1 X52.092 Y113.187 E0.0108
G1 X51.180 Y113.386 E0.0242
G1 X50.725 Y113.397 E0.0118
G1 X49.890 Y113.254 E0.0220
G1 X49.648 Y113.185 E0.0065
G1 X48.998 Y112.924 E0.0182
G1 X48.782 Y112.810 E0.0063
G1 X48.126 Y112.371 E0.0205
G1 X47.894 Y112.168 E0.0080
G1 X47.265 Y111.451 E0.0247
G1 X47.125 Y111.254 E0.0063
G1 X46.683 Y110.473 E0.0233
G1 X46.629 Y110.364 E0.0032
G1 X46.038 Y109.013 E0.0383
G1 X45.705 Y108.359 E0.0190
G1 X45.448 Y107.936 E0.0128
G1 X44.504 Y106.636 E0.0417
G1 X44.454 Y106.561 E0.0024
G1 X43.941 Y105.728 E0.0254
G1 X43.919 Y105.690 E0.0012
G1 X43.353 Y104.688 E0.0299
G1 X43.330 Y104.645 E0.0013
G1 X41.771 Y101.597 E0.0888
G1 X41.745 Y101.544 E0.0015
G1 X41.318 Y100.595 E0.0270
G1 X41.300 Y100.552 E0.0012
G1 X40.573 Y98.748 E0.0504
G1 X40.555 Y98.699 E0.0014
G1 X39.631 Y96.078 E0.0721
G1 X39.596 Y95.960 E0.0032
G1 X39.030 Y93.590 E0.0632
G1 X38.466 Y93.373 E0.0157
G1 X38.125 Y93.406 E0.0089
G1 X36.571 Y93.724 E0.0412
G1 X36.419 Y93.745 E0.0040
G1 X35.872 Y93.784 E0.0142
G1 X35.655 Y93.779 E0.0056
G1 X35.129 Y93.720 E0.0138
G1 X35.121 Y93.719 E0.0002
G1 X35.097 Y93.716 E0.0006
G1 X34.884 Y93.675 E0.0056
G1 X34.625 Y93.600 E0.0070
G1 X34.472 Y93.559 E0.0041
G1 X34.427 Y93.542 E0.0012
