; G-Code generated by Simplify3D(R) Version 4.1.2
; Sep 3, 2021 at 2:54:17 PM
; Settings Summary
;   processName,Process1
;   applyToModels,xyzCalibration_cube
;   profileName,ANXP 10.1.2 E1 S3D
;   profileVersion,2021-08-27 11:04:25
;   baseProfile,Default
;   printMaterial,
;   printQuality,
;   printExtruders,
;   extruderName,Extruder 1
;   extruderToolheadNumber,0
;   extruderDiameter,0.4
;   extruderAutoWidth,0
;   extruderWidth,0.42
;   extrusionMultiplier,0.95
;   extruderUseRetract,1
;   extruderRetractionDistance,0.3
;   extruderExtraRestartDistance,0.03
;   extruderRetractionZLift,0.1
;   extruderRetractionSpeed,1200
;   extruderUseCoasting,0
;   extruderCoastingDistance,0.5
;   extruderUseWipe,0
;   extruderWipeDistance,0.5
;   primaryExtruder,0
;   layerHeight,0.2
;   topSolidLayers,4
;   bottomSolidLayers,4
;   perimeterOutlines,2
;   printPerimetersInsideOut,1
;   startPointOption,3
;   startPointOriginX,100
;   startPointOriginY,0
;   sequentialIslands,1
;   spiralVaseMode,0
;   firstLayerHeightPercentage,200
;   firstLayerWidthPercentage,150
;   firstLayerUnderspeed,0.5
;   useRaft,0
;   raftExtruder,0
;   raftTopLayers,2
;   raftBaseLayers,1
;   raftOffset,4
;   raftSeparationDistance,0.08
;   raftTopInfill,100
;   aboveRaftSpeedMultiplier,0.3
;   useSkirt,1
;   skirtExtruder,0
;   skirtLayers,1
;   skirtOutlines,1
;   skirtOffset,1
;   usePrimePillar,0
;   primePillarExtruder,999
;   primePillarWidth,12
;   primePillarLocation,7
;   primePillarSpeedMultiplier,1
;   useOozeShield,0
;   oozeShieldExtruder,999
;   oozeShieldOffset,2
;   oozeShieldOutlines,1
;   oozeShieldSidewallShape,1
;   oozeShieldSidewallAngle,30
;   oozeShieldSpeedMultiplier,1
;   infillExtruder,0
;   internalInfillPattern,Rectilinear
;   externalInfillPattern,Rectilinear
;   infillPercentage,50
;   outlineOverlapPercentage,25
;   infillExtrusionWidthPercentage,100
;   minInfillLength,2
;   infillLayerInterval,1
;   internalInfillAngles,45,0,-45,90
;   overlapInternalInfillAngles,0
;   externalInfillAngles,45,-45
;   generateSupport,1
;   supportExtruder,0
;   supportInfillPercentage,15
;   supportExtraInflation,0.4
;   supportBaseLayers,1
;   denseSupportExtruder,0
;   denseSupportLayers,2
;   denseSupportInfillPercentage,90
;   supportLayerInterval,1
;   supportHorizontalPartOffset,0.4
;   supportUpperSeparationLayers,1
;   supportLowerSeparationLayers,1
;   supportType,0
;   supportGridSpacing,2
;   maxOverhangAngle,55
;   supportAngles,45,-45
;   temperatureName,Extruder 1
;   temperatureNumber,0
;   temperatureSetpointCount,2
;   temperatureSetpointLayers,1,2
;   temperatureSetpointTemperatures,202,205
;   temperatureStabilizeAtStartup,1
;   temperatureHeatedBed,0
;   fanLayers,1,3
;   fanSpeeds,40,100
;   blipFanToFullPower,0
;   adjustSpeedForCooling,1
;   minSpeedLayerTime,10
;   minCoolingSpeedSlowdown,30
;   increaseFanForCooling,1
;   minFanLayerTime,5
;   maxCoolingFanSpeed,100
;   increaseFanForBridging,1
;   bridgingFanSpeed,50
;   use5D,1
;   relativeEdistances,1
;   allowEaxisZeroing,1
;   independentExtruderAxes,0
;   includeM10123,0
;   stickySupport,1
;   applyToolheadOffsets,0
;   gcodeXoffset,0
;   gcodeYoffset,0
;   gcodeZoffset,0
;   overrideMachineDefinition,1
;   machineTypeOverride,0
;   strokeXoverride,255
;   strokeYoverride,155
;   strokeZoverride,200
;   originOffsetXoverride,0
;   originOffsetYoverride,0
;   originOffsetZoverride,0
;   homeXdirOverride,-1
;   homeYdirOverride,-1
;   homeZdirOverride,1
;   flipXoverride,1
;   flipYoverride,-1
;   flipZoverride,1
;   toolheadOffsets,0,0|0,0|0,0|0,0|0,0|0,0
;   overrideFirmwareConfiguration,0
;   firmwareTypeOverride,RepRap (Marlin/Repetier/Sprinter)
;   GPXconfigOverride,r2
;   baudRateOverride,250000
;   overridePrinterModels,0
;   printerModelsOverride
;   startingGcode,M83 ; relative extrusion mode,,;Pressure advances,M572 D0 S0.06                      ;Pressure advance enabled,M400 ; Finish all current moves and for pressure advances.,,,;Wipe nozzle before printing,G1 Z10 F1200			; Go to wipe position,G1 X20 Y165 F6000 		; Go to wipe position,G1 Z0.2 F1200			; Go to wipe height,G91			         ; relative movement for wipe extrusion,G1 E10.0 F300		         ; Extrude 10mm for wipe,M400			         ; wait for moves to finishng,G90			         ; world coordinate position,G92 E0			         ; zero extruder,G4 S1			         ; wait for wipe to drop,G1 Y140.0 E1 F900	         ; Move on bed wipe the nozzle,		                 ;MHI3D CODE END
;   layerChangeGcode,
;   retractionGcode,
;   toolChangeGcode,
;   endingGcode,G28 Z0	;Home Z,G91	;Relative movement for wipe extrusion,G1 E-2.0 F120	;Extrude 10mm for wipe,M400	; wait for moves to finishng,G90	; world coordinate position,G92 E0	; zero extruder,,G28	;Home,M104 S0	;Set Extruder Temperature,M140 S0	;Set Bed Temperature (Fast) or Configure Bed Heater,G90	;Set to Absolute Positioning,M18 X Z E0	;Disable XZE stepper motors,G1 Y145 F3000	;Move,G92 E0	;Set position,M107	;Fan off,M18 Y	;Disable Y stepper motor
;   exportFileFormat,gcode
;   celebration,0
;   celebrationSong,Random Song
;   postProcessing,
;   defaultSpeed,2100
;   outlineUnderspeed,1
;   solidInfillUnderspeed,1
;   supportUnderspeed,1
;   rapidXYspeed,3000
;   rapidZspeed,2100
;   minBridgingArea,15
;   bridgingExtraInflation,1
;   bridgingExtrusionMultiplier,1
;   bridgingSpeedMultiplier,0.5
;   useFixedBridgingAngle,0
;   fixedBridgingAngle,0
;   applyBridgingToPerimeters,1
;   filamentDiameters,1.75|1.75|1.75|1.75|1.75|1.75
;   filamentPricesPerKg,186|46|46|46|46|46
;   filamentDensities,1.25|1.25|1.25|1.25|1.25|1.25
;   useMinPrintHeight,0
;   minPrintHeight,0
;   useMaxPrintHeight,0
;   maxPrintHeight,0
;   useDiaphragm,0
;   diaphragmLayerInterval,20
;   robustSlicing,1
;   mergeAllIntoSolid,0
;   onlyRetractWhenCrossingOutline,1
;   retractBetweenLayers,0
;   useRetractionMinTravel,1
;   retractionMinTravel,2
;   retractWhileWiping,0
;   onlyWipeOutlines,0
;   avoidCrossingOutline,0
;   maxMovementDetourFactor,3
;   toolChangeRetractionDistance,20
;   toolChangeExtraRestartDistance,0
;   toolChangeRetractionSpeed,600
;   externalThinWallType,0
;   internalThinWallType,1
;   thinWallAllowedOverlapPercentage,10
;   singleExtrusionMinLength,5
;   singleExtrusionMinPrintingWidthPercentage,70
;   singleExtrusionMaxPrintingWidthPercentage,130
;   singleExtrusionEndpointExtension,0.1
;   horizontalSizeCompensation,0
G90
M83
M106 S102
M104 S202 T0
M109 S202 T0
M83 ; relative extrusion mode
;Pressure advances
M572 D0 S0.06                      ;Pressure advance enabled
M400 ; Finish all current moves and for pressure advances.
;Wipe nozzle before printing
G1 Z10 F1200			; Go to wipe position
G1 X20 Y165 F6000 		; Go to wipe position
G1 Z0.2 F1200			; Go to wipe height
G91			         ; relative movement for wipe extrusion
G1 E10.0 F300		         ; Extrude 10mm for wipe
M400			         ; wait for moves to finishng
G90			         ; world coordinate position
G92 E0			         ; zero extruder
G4 S1			         ; wait for wipe to drop
G1 Y140.0 E1 F900	         ; Move on bed wipe the nozzle
		                 ;MHI3D CODE END
; process Process1
; layer 1, Z = 0.400
T0
G1 E-0.3000 F1200
; feature skirt
; tool H0.400 W0.630
G1 Z0.400 F2100
G1 X50.845 Y52.553 F3000
G1 E0.3300 F1200
G1 X51.615 Y53.324 E0.1084 F1050
G1 X51.615 Y74.413 E2.0990
G1 X50.845 Y75.183 E0.1084
G1 X29.755 Y75.183 E2.0990
G1 X28.985 Y74.413 E0.1084
G1 X28.985 Y53.324 E2.0990
G1 X29.755 Y52.553 E0.1084
G1 X50.845 Y52.553 E2.0990
G1 E-0.3000 F1200
; feature inner perimeter
G1 Z0.500 F2100
G1 X49.355 Y54.813 F3000
G1 Z0.400 F2100
G1 E0.3300 F1200
G1 X49.355 Y72.923 E1.8025 F1050
G1 X31.245 Y72.923 E1.8025
G1 X31.245 Y54.813 E1.8025
G1 X49.355 Y54.813 E1.8025
; feature outer perimeter
G1 X49.985 Y54.183 F3000
G1 X49.985 Y73.553 E1.9279 F1050
G1 X30.615 Y73.553 E1.9279
G1 X30.615 Y54.183 E1.9279
G1 X49.985 Y54.183 E1.9279
; feature solid layer
G1 X48.646 Y55.286 F3000
G1 X48.883 Y55.523 E0.0333 F1050
G1 X48.883 Y56.414 E0.0887
G1 X47.755 Y55.286 E0.1587
G1 X46.864 Y55.286 E0.0887
G1 X48.883 Y57.305 E0.2842
G1 X48.883 Y58.195 E0.0887
G1 X45.973 Y55.286 E0.4096
G1 X45.082 Y55.286 E0.0887
G1 X48.883 Y59.086 E0.5350
G1 X48.883 Y59.977 E0.0887
G1 X44.191 Y55.286 E0.6604
G1 X43.300 Y55.286 E0.0887
G1 X48.883 Y60.868 E0.7858
G1 X48.883 Y61.759 E0.0887
G1 X42.409 Y55.286 E0.9112
G1 X41.518 Y55.286 E0.0887
G1 X48.883 Y62.650 E1.0366
G1 X48.883 Y63.541 E0.0887
G1 X40.627 Y55.286 E1.1620
G1 X39.736 Y55.286 E0.0887
G1 X48.883 Y64.432 E1.2874
G1 X48.883 Y65.323 E0.0887
G1 X38.845 Y55.286 E1.4128
G1 X37.954 Y55.286 E0.0887
G1 X48.883 Y66.214 E1.5382
G1 X48.883 Y67.105 E0.0887
G1 X37.063 Y55.286 E1.6637
G1 X36.172 Y55.286 E0.0887
G1 X48.883 Y67.996 E1.7891
G1 X48.883 Y68.887 E0.0887
G1 X35.281 Y55.286 E1.9145
G1 X34.391 Y55.286 E0.0887
G1 X48.883 Y69.778 E2.0399
G1 X48.883 Y70.669 E0.0887
G1 X33.500 Y55.286 E2.1653
G1 X32.609 Y55.286 E0.0887
G1 X48.883 Y71.560 E2.2907
G1 X48.883 Y72.451 E0.0887
G1 X31.718 Y55.286 E2.4161
G1 X31.718 Y56.177 E0.0887
G1 X47.992 Y72.451 E2.2907
G1 X47.101 Y72.451 E0.0887
G1 X31.718 Y57.068 E2.1653
G1 X31.718 Y57.959 E0.0887
G1 X46.210 Y72.451 E2.0399
G1 X45.319 Y72.451 E0.0887
G1 X31.718 Y58.850 E1.9145
G1 X31.718 Y59.741 E0.0887
G1 X44.428 Y72.451 E1.7891
G1 X43.537 Y72.451 E0.0887
G1 X31.718 Y60.631 E1.6637
G1 X31.718 Y61.522 E0.0887
G1 X42.646 Y72.451 E1.5383
G1 X41.755 Y72.451 E0.0887
G1 X31.718 Y62.413 E1.4128
G1 X31.718 Y63.304 E0.0887
G1 X40.864 Y72.451 E1.2874
G1 X39.973 Y72.451 E0.0887
G1 X31.718 Y64.195 E1.1620
G1 X31.718 Y65.086 E0.0887
G1 X39.082 Y72.451 E1.0366
G1 X38.191 Y72.451 E0.0887
G1 X31.718 Y65.977 E0.9112
G1 X31.718 Y66.868 E0.0887
G1 X37.300 Y72.451 E0.7858
G1 X36.409 Y72.451 E0.0887
G1 X31.718 Y67.759 E0.6604
G1 X31.718 Y68.650 E0.0887
G1 X35.518 Y72.451 E0.5350
G1 X34.627 Y72.451 E0.0887
G1 X31.718 Y69.541 E0.4096
G1 X31.718 Y70.432 E0.0887
G1 X33.736 Y72.451 E0.2842
G1 X32.845 Y72.451 E0.0887
G1 X31.718 Y71.323 E0.1588
G1 X31.718 Y72.214 E0.0887
G1 X31.955 Y72.451 E0.0333
; layer 2, Z = 0.600
M104 S205 T0
; feature inner perimeter
; tool H0.200 W0.420
G1 Z0.600 F2100
G1 X49.670 Y54.498 F3000
G1 X49.670 Y73.238 E0.6217 F2100
G1 X30.930 Y73.238 E0.6217
G1 X30.930 Y54.498 E0.6217
G1 X49.670 Y54.498 E0.6217
; feature outer perimeter
G1 X50.090 Y54.078 F3000
G1 X50.090 Y73.658 E0.6496 F2100
G1 X30.510 Y73.658 E0.6496
G1 X30.510 Y54.078 E0.6496
G1 X50.090 Y54.078 E0.6496
; feature solid layer
G1 X49.355 Y72.632 F3000
G1 X49.064 Y72.923 E0.0136 F2100
G1 X48.470 Y72.923 E0.0197
G1 X49.355 Y72.038 E0.0415
G1 X49.355 Y71.444 E0.0197
G1 X47.876 Y72.923 E0.0694
G1 X47.282 Y72.923 E0.0197
G1 X49.355 Y70.851 E0.0973
G1 X49.355 Y70.257 E0.0197
G1 X46.688 Y72.923 E0.1251
G1 X46.094 Y72.923 E0.0197
G1 X49.355 Y69.663 E0.1530
G1 X49.355 Y69.069 E0.0197
G1 X45.500 Y72.923 E0.1809
G1 X44.906 Y72.923 E0.0197
G1 X49.355 Y68.475 E0.2087
G1 X49.355 Y67.881 E0.0197
G1 X44.313 Y72.923 E0.2366
G1 X43.719 Y72.923 E0.0197
G1 X49.355 Y67.287 E0.2645
G1 X49.355 Y66.693 E0.0197
G1 X43.125 Y72.923 E0.2923
G1 X42.531 Y72.923 E0.0197
G1 X49.355 Y66.099 E0.3202
G1 X49.355 Y65.505 E0.0197
G1 X41.937 Y72.923 E0.3481
G1 X41.343 Y72.923 E0.0197
G1 X49.355 Y64.911 E0.3759
G1 X49.355 Y64.317 E0.0197
G1 X40.749 Y72.923 E0.4038
G1 X40.155 Y72.923 E0.0197
G1 X49.355 Y63.723 E0.4317
G1 X49.355 Y63.129 E0.0197
G1 X39.561 Y72.923 E0.4595
G1 X38.967 Y72.923 E0.0197
G1 X49.355 Y62.535 E0.4874
G1 X49.355 Y61.941 E0.0197
G1 X38.373 Y72.923 E0.5153
G1 X37.779 Y72.923 E0.0197
G1 X49.355 Y61.347 E0.5432
G1 X49.355 Y60.753 E0.0197
G1 X37.185 Y72.923 E0.5710
G1 X36.591 Y72.923 E0.0197
G1 X49.355 Y60.159 E0.5989
G1 X49.355 Y59.565 E0.0197
G1 X35.997 Y72.923 E0.6268
G1 X35.403 Y72.923 E0.0197
G1 X49.355 Y58.971 E0.6546
G1 X49.355 Y58.377 E0.0197
G1 X34.809 Y72.923 E0.6825
G1 X34.215 Y72.923 E0.0197
G1 X49.355 Y57.783 E0.7104
G1 X49.355 Y57.189 E0.0197
G1 X33.621 Y72.923 E0.7382
G1 X33.027 Y72.923 E0.0197
G1 X49.355 Y56.595 E0.7661
G1 X49.355 Y56.001 E0.0197
G1 X32.433 Y72.923 E0.7940
G1 X31.839 Y72.923 E0.0197
G1 X49.355 Y55.407 E0.8218
G1 X49.355 Y54.813 E0.0197
G1 X31.245 Y72.923 E0.8497
G1 X31.245 Y72.329 E0.0197
G1 X48.761 Y54.813 E0.8218
G1 X48.167 Y54.813 E0.0197
G1 X31.245 Y71.735 E0.7940
G1 X31.245 Y71.141 E0.0197
G1 X47.573 Y54.813 E0.7661
G1 X46.979 Y54.813 E0.0197
G1 X31.245 Y70.547 E0.7382
G1 X31.245 Y69.953 E0.0197
G1 X46.385 Y54.813 E0.7104
G1 X45.791 Y54.813 E0.0197
G1 X31.245 Y69.360 E0.6825
G1 X31.245 Y68.766 E0.0197
G1 X45.197 Y54.813 E0.6546
G1 X44.603 Y54.813 E0.0197
G1 X31.245 Y68.172 E0.6268
G1 X31.245 Y67.578 E0.0197
G1 X44.009 Y54.813 E0.5989
G1 X43.415 Y54.813 E0.0197
G1 X31.245 Y66.984 E0.5710
G1 X31.245 Y66.390 E0.0197
G1 X42.822 Y54.813 E0.5432
G1 X42.228 Y54.813 E0.0197
G1 X31.245 Y65.796 E0.5153
G1 X31.245 Y65.202 E0.0197
G1 X41.634 Y54.813 E0.4874
G1 X41.040 Y54.813 E0.0197
G1 X31.245 Y64.608 E0.4596
G1 X31.245 Y64.014 E0.0197
G1 X40.446 Y54.813 E0.4317
G1 X39.852 Y54.813 E0.0197
G1 X31.245 Y63.420 E0.4038
G1 X31.245 Y62.826 E0.0197
G1 X39.258 Y54.813 E0.3759
G1 X38.664 Y54.813 E0.0197
G1 X31.245 Y62.232 E0.3481
G1 X31.245 Y61.638 E0.0197
G1 X38.070 Y54.813 E0.3202
G1 X37.476 Y54.813 E0.0197
G1 X31.245 Y61.044 E0.2923
G1 X31.245 Y60.450 E0.0197
G1 X36.882 Y54.813 E0.2645
G1 X36.288 Y54.813 E0.0197
G1 X31.245 Y59.856 E0.2366
G1 X31.245 Y59.262 E0.0197
G1 X35.694 Y54.813 E0.2087
G1 X35.100 Y54.813 E0.0197
G1 X31.245 Y58.668 E0.1809
G1 X31.245 Y58.074 E0.0197
G1 X34.506 Y54.813 E0.1530
G1 X33.912 Y54.813 E0.0197
G1 X31.245 Y57.480 E0.1251
G1 X31.245 Y56.886 E0.0197
G1 X33.318 Y54.813 E0.0973
G1 X32.724 Y54.813 E0.0197
G1 X31.245 Y56.292 E0.0694
G1 X31.245 Y55.698 E0.0197
G1 X32.130 Y54.813 E0.0415
G1 X31.536 Y54.813 E0.0197
G1 X31.245 Y55.104 E0.0137
; layer 3, Z = 0.800
M106 S255
; feature inner perimeter
G1 Z0.800 F2100
G1 X49.670 Y54.498 F3000
G1 X49.670 Y73.238 E0.6217 F2100
G1 X30.930 Y73.238 E0.6217
G1 X30.930 Y54.498 E0.6217
G1 X49.670 Y54.498 E0.6217
; feature outer perimeter
G1 X50.090 Y54.078 F3000
G1 X50.090 Y73.658 E0.6496 F2100
G1 X30.510 Y73.658 E0.6496
G1 X30.510 Y54.078 E0.6496
G1 X50.090 Y54.078 E0.6496
; feature solid layer
G1 X49.064 Y54.813 F3000
G1 X49.355 Y55.104 E0.0136 F2100
G1 X49.355 Y55.698 E0.0197
G1 X48.470 Y54.813 E0.0415
G1 X47.876 Y54.813 E0.0197
G1 X49.355 Y56.292 E0.0694
G1 X49.355 Y56.886 E0.0197
G1 X47.282 Y54.813 E0.0973
G1 X46.688 Y54.813 E0.0197
G1 X49.355 Y57.480 E0.1251
G1 X49.355 Y58.074 E0.0197
G1 X46.094 Y54.813 E0.1530
G1 X45.500 Y54.813 E0.0197
G1 X49.355 Y58.668 E0.1809
G1 X49.355 Y59.262 E0.0197
G1 X44.906 Y54.813 E0.2087
G1 X44.312 Y54.813 E0.0197
G1 X49.355 Y59.856 E0.2366
G1 X49.355 Y60.450 E0.0197
G1 X43.719 Y54.813 E0.2645
G1 X43.125 Y54.813 E0.0197
G1 X49.355 Y61.044 E0.2923
G1 X49.355 Y61.638 E0.0197
G1 X42.531 Y54.813 E0.3202
G1 X41.937 Y54.813 E0.0197
G1 X49.355 Y62.232 E0.3481
G1 X49.355 Y62.826 E0.0197
G1 X41.343 Y54.813 E0.3759
G1 X40.749 Y54.813 E0.0197
G1 X49.355 Y63.420 E0.4038
G1 X49.355 Y64.014 E0.0197
G1 X40.155 Y54.813 E0.4317
G1 X39.561 Y54.813 E0.0197
G1 X49.355 Y64.608 E0.4595
G1 X49.355 Y65.202 E0.0197
G1 X38.967 Y54.813 E0.4874
G1 X38.373 Y54.813 E0.0197
G1 X49.355 Y65.796 E0.5153
G1 X49.355 Y66.390 E0.0197
G1 X37.779 Y54.813 E0.5432
G1 X37.185 Y54.813 E0.0197
G1 X49.355 Y66.984 E0.5710
G1 X49.355 Y67.578 E0.0197
G1 X36.591 Y54.813 E0.5989
G1 X35.997 Y54.813 E0.0197
G1 X49.355 Y68.172 E0.6268
G1 X49.355 Y68.765 E0.0197
G1 X35.403 Y54.813 E0.6546
G1 X34.809 Y54.813 E0.0197
G1 X49.355 Y69.359 E0.6825
G1 X49.355 Y69.953 E0.0197
G1 X34.215 Y54.813 E0.7104
G1 X33.621 Y54.813 E0.0197
G1 X49.355 Y70.547 E0.7382
G1 X49.355 Y71.141 E0.0197
G1 X33.027 Y54.813 E0.7661
G1 X32.433 Y54.813 E0.0197
G1 X49.355 Y71.735 E0.7940
G1 X49.355 Y72.329 E0.0197
G1 X31.839 Y54.813 E0.8218
G1 X31.245 Y54.813 E0.0197
G1 X49.355 Y72.923 E0.8497
G1 X48.761 Y72.923 E0.0197
G1 X31.245 Y55.407 E0.8218
G1 X31.245 Y56.001 E0.0197
G1 X48.167 Y72.923 E0.7940
G1 X47.573 Y72.923 E0.0197
G1 X31.245 Y56.595 E0.7661
